!!!!SEGMENT: pl-kk--kk-i-473--005_kalous-vaclav--missa-solemnis-benedictus.krn
!!!cenid: 17xx:1876
!!!COM: Kalous, Václav
!!!COM-rismid: pe30001658
!!!CDT: 1715-1786
!!!CNT: Czech
!!!OTL: Missa solemnis – Benedictus
!!!PDT:
!!!AGN: Sacred; Mass
!!!SMS-siglum: PL-Kk
!!!SMS-shelfmark: Kk.I.473
!!!SMS-shelfwork: 001-005 M
!!!SMS-variant:
!!!SMS-altvar:
!!!NIFC-rismid: 1001139984
!!!URL-scan: http://repozytorium.nifc.pl/skany/pl-kk-nut--i-473
!!!ONB-nifc: UWAGA: części Mszy: 1. Kyrie, 2. Gloria, 3. Patrem, 4. Sanctus, 5. Benedictus, 6. Osanna, 7. Agnus, 8. Dona
**kern	**fba	**kern	**kern	**kern	**dynam	**kern	**dynam	**kern	**kern	**kern	**kern	**text	**kern	**kern	**kern	**kern
*part13	*part13	*part12	*part11	*part10	*part10	*part9	*part9	*part8	*part7	*part6	*part5	*part5	*part4	*part3	*part2	*part1
*group	*group	*group4	*group4	*group4	*group4	*group4	*group4	*group3	*group3	*group3	*group3	*group3	*group2	*group2	*group1	*group1
*staff13	*	*staff12	*staff11	*staff10	*	*staff9	*	*staff8	*staff7	*staff6	*staff5	*staff5	*staff4	*staff3	*staff2	*staff1
*I"Organo.	*	*I"Alto Viola II.do v(el) Tromb[one]:	*I"Alto Viola I.mo vel Tromb[one]:	*I"Violino 2do	*	*I"Violino Primo	*	*I"Baſso	*I"Tenore	*I"Alto Conc[er]to:	*I"Canto Conc[er]to.	*	*I"Clarino 2:do Ex D.	*I"Clarino Primo in D.	*I"Oboe Secundo.	*I"Oboe Primo
*I'org	*	*I'vla or trb 2	*I'vla or trb 1	*I'vl 2	*	*I'vl 1	*	*I'B	*I'T	*I'A	*I'S	*	*I'clno 2	*I'clno 1	*I'ob 2	*I'ob 1
*clefF4	*	*clefC3	*clefC3	*clefG2	*	*clefG2	*	*clefF4	*clefC4	*clefC3	*clefC1	*	*clefG2	*clefG2	*clefG2	*clefG2
*	*	*	*	*	*	*	*	*	*	*	*	*	*ITrd-1c-2	*ITrd-1c-2	*	*
*k[f#c#]	*	*k[f#c#]	*k[f#c#]	*k[f#c#]	*	*k[f#c#]	*	*k[f#c#]	*k[f#c#]	*k[f#c#]	*k[f#c#]	*	*k[f#c#]	*k[f#c#]	*k[f#c#]	*k[f#c#]
*D:	*	*D:	*D:	*D:	*	*D:	*	*D:	*	*D:	*D:	*	*	*	*D:	*D:
*M2/4	*	*M2/4	*M2/4	*M2/4	*	*M2/4	*	*M2/4	*M2/4	*M2/4	*M2/4	*	*M2/4	*M2/4	*M2/4	*M2/4
=1	=1	=1	=1	=1	=1	=1	=1	=1	=1	=1	=1	=1	=1	=1	=1	=1
*	*	*	*	*	*below	*Xtuplet	*below	*	*	*	*	*	*	*	*	*
!LO:TX:a:t=P:problem:znaki przykluczowe: błędnie dodany G# (tylko na początku pierwszej pięciolinii)	!	!	!	!	!	!	!	!	!	!	!LO:N:vis=00	!	!	!	!	!
!LO:TX:a:t=P:problem:mixed beam	!	!LO:TX:a:t=P:problem:napisy na pięciolinii	!	!	!	!	!	!LO:TX:a:t=P:problem:napis na pięciolinii	!LO:TX:a:t=P:problem: w źródle napis na pięciolinii	!LO:TX:a:t=P:problem:napis na pięciolinii	!	!	!	!	!	!LO:TX:a:t=P:problem:all\middle or left:global
!LO:TX:a:i:t=and[ante]&colon; S[olo]&colon;	!	!LO:TX:a:B:i:t=O Sacrum\nconvivium	!LO:TX:a:i:t=And[ante]&colon;te Solo	!LO:TX:a:i:t=Andantino	!	!LO:TX:a:i:t=Andantino	!	!LO:TX:a:i:B:t=Benedictus Tacet	!LO:TX:a:i:B:t=Benedictus Tacet.	!LO:TX:a:B:i:t=Benedict(us) Tacet	!	!	!LO:TX:a:B:i:t=Benedictus Tacet\n O Sacrum convivium	!LO:TX:a:B:i:t=Benedictus Tacet\n O Sacrum convivium	!LO:TX:a:B:i:t=O Sacrum Convivium\nBenedictus Tacet	!LO:TX:a:i:t=And[an]&colon;te Solo
!LO:TX:b:B:i:t=Benedictus	!	!	!LO:TX:b:B:i:t=Benedictus	!LO:TX:b:B:i:t=Benedictus	!	!LO:TX:b:B:i:t=Benedictus	!	!	!	!	!	!	!	!	!	!LO:TX:b:t=P:problem:inicjał nazwy części na pięciolinii przed kluczem
!LO:TX:b:t=P:problem:inicjał nazwy części na pięciolinii przed kluczem	!	!	!LO:TX:b:t=P:problem:inicjał nazwy części na pięciolinii przed kluczem	!LO:TX:b:t=P:problem:inicjał nazwy części na pięciolinii przed kluczem	!	!LO:TX:b:t=P:problem:inicjał nazwy części na pięciolinii przed kluczem	!	!	!	!	!LO:TX:a:t=P:problem:kolejność znaków przykluczowych w źródle: f#, cc#	!	!LO:TX:a:t=P:problem:napis na pięciolinii	!LO:TX:a:t=P:problem:napis na pięciolinii	!LO:TX:a:t=P:problem:napis na pięciolinii	!LO:TX:b:B:i:t=Benedictus
!	!	!	!	!	!	!	!	!	!	!	!LO:N:vis=00	!	!	!	!	!LO:N:vis=0
8D\L	.	2ryy	8f#\L	8dd\	.	8.dd\L	.	2ryy	2ryy	2ryy	0r	.	2ryy	2ryy	2ryy	1r
8F#\	.	.	8a\	8r	.	.	.	.	.	.	.	.	.	.	.	.
.	.	.	.	.	.	16dd\Jk	.	.	.	.	.	.	.	.	.	.
!	!	!	!	!	!	!LO:TUP:a:problem:klamra łukowa	!	!	!	!	!	!	!	!	!	!
8C#/	.	.	8e\	8a/	.	24ee\LL	.	.	.	.	.	.	.	.	.	.
!	!	!LO:TX:a:B:i:t=et Benedictus\nTacet	!	!	!	!	!	!	!	!	!	!	!	!	!	!
.	.	.	.	.	.	24dd#X\	.	.	.	.	.	.	.	.	.	.
.	.	.	.	.	.	24ee\JJ	.	.	.	.	.	.	.	.	.	.
!	!	!	!	!	!	!LO:TUP:a:problem:klamra łukowa	!	!	!	!	!	!	!	!	!	!
8AA/J	.	.	8c#\J	8r	.	24ee\LL	.	.	.	.	.	.	.	.	.	.
.	.	.	.	.	.	24dd#\	.	.	.	.	.	.	.	.	.	.
.	.	.	.	.	.	24ee\JJ	.	.	.	.	.	.	.	.	.	.
=2	=2	=2	=2	=2	=2	=2	=2	=2	=2	=2	=2	=2	=2	=2	=2	=2
!LO:TX:a:t=P:problem:mixed beam	!	!	!	!	!	!LO:TUP:a:problem:klamra łukowa, kropka zamiast numeru	!	!	!	!	!	!	!	!	!	!
8D\L	.	2ryy	8A/L	8a/L	.	24ff#\LL	.	2ryy	2ryy	2ryy	.	.	2ryy	2ryy	2ryy	.
.	.	.	.	.	.	24ee\	.	.	.	.	.	.	.	.	.	.
.	.	.	.	.	.	24ff#\JJ	.	.	.	.	.	.	.	.	.	.
*	*	*	*	*Xtuplet	*	*	*	*	*	*	*	*	*	*	*	*
!	!	!	!	!LO:TUP:b:problem:klamra łukowa, kropka zamiast numeru	!	!LO:TUP:a:problem:klamra łukowa, kropka zamiast numeru	!	!	!	!	!	!	!	!	!	!
8G\	.	.	8B/	24b/L	.	24gg\LL	.	.	.	.	.	.	.	.	.	.
.	.	.	.	24a/	.	24ff#\	.	.	.	.	.	.	.	.	.	.
.	.	.	.	24g/JJ	.	24ee\JJ	.	.	.	.	.	.	.	.	.	.
8A\	X 4	.	8A/	8f#/L	.	8dd\L	.	.	.	.	.	.	.	.	.	.
8AA/J	X 3	.	8A/J	8e/J	.	8cc#t>\J	.	.	.	.	.	.	.	.	.	.
=3	=3	=3	=3	=3	=3	=3	=3	=3	=3	=3	=3	=3	=3	=3	=3	=3
!	!	!	!	!	!LO:DY:b:t=po.	!	!	!	!	!	!	!	!	!	!	!
4D\	.	2ryy	4A/	8f#/L	p	8dd\	.	2ryy	2ryy	2ryy	.	.	2ryy	2ryy	2ryy	8.dd\L
.	.	.	.	8d/	.	8r	.	.	.	.	.	.	.	.	.	.
.	.	.	.	.	.	.	.	.	.	.	.	.	.	.	.	32ee\LL
.	.	.	.	.	.	.	.	.	.	.	.	.	.	.	.	32ff#\JJJ
!	!	!	!	!	!	!	!LO:DY:b:t=pia	!	!	!	!	!	!	!	!	!
4r	.	.	4r	8c#/	.	8a/	p	.	.	.	.	.	.	.	.	8.ee\L
.	.	.	.	8A/J	.	8r	.	.	.	.	.	.	.	.	.	.
.	.	.	.	.	.	.	.	.	.	.	.	.	.	.	.	32ff#\LL
.	.	.	.	.	.	.	.	.	.	.	.	.	.	.	.	32gg\JJJ
=4	=4	=4	=4	=4	=4	=4	=4	=4	=4	=4	=4	=4	=4	=4	=4	=4
*	*	*	*	*	*	*	*	*	*	*	*	*	*	*	*	*Xtuplet
!	!	!	!	!	!	!	!	!	!	!	!	!	!	!	!	!LO:TUP:a:problem:klamra łukowa
2r	.	2ryy	2r	8d/L	.	8a/	.	2ryy	2ryy	2ryy	.	.	2ryy	2ryy	2ryy	24ff#\LL
.	.	.	.	.	.	.	.	.	.	.	.	.	.	.	.	24ee\
.	.	.	.	.	.	.	.	.	.	.	.	.	.	.	.	24ff#\JJ
!	!	!	!	!	!	!	!	!	!	!	!	!	!	!	!	!LO:TUP:a:problem:klamra łukowa, kropka zamiast numeru
.	.	.	.	8B/	.	4d/	.	.	.	.	.	.	.	.	.	24gg\LL
.	.	.	.	.	.	.	.	.	.	.	.	.	.	.	.	24ff#\
.	.	.	.	.	.	.	.	.	.	.	.	.	.	.	.	24ee\JJ
.	.	.	.	8G/	.	.	.	.	.	.	.	.	.	.	.	4eeT>\
.	.	.	.	8A/J	.	8c#/	.	.	.	.	.	.	.	.	.	.
=5	=5	=5	=5	=5	=5	=5	=5	=5	=5	=5	=5	=5	=5	=5	=5	=5
!	!	!	!	!	!	!LO:TX:a:t=P:problem:mixed beam	!	!	!	!	!LO:N:vis=00	!	!	!	!	!
8D\	.	2ryy	(>16d\LL	8d/L	.	8d/L	.	2ryy	2ryy	2ryy	0r	.	2ryy	2ryy	2ryy	4dd\
.	.	.	16f#\)	.	.	.	.	.	.	.	.	.	.	.	.	.
!	!	!	!	!	!	!	!LO:DY:b:t=for	!	!	!	!	!	!	!	!	!
8r	.	.	(>16d\	(<16f#/L	.	[>8aa\J	f	.	.	.	.	.	.	.	.	.
.	.	.	16f#\JJ)	16a/JJ)	.	.	.	.	.	.	.	.	.	.	.	.
8D\	.	.	(>16d\LL	(<16f#/LL	.	24aa\LL]	.	.	.	.	.	.	.	.	.	4r
.	.	.	.	.	.	24ff#\	.	.	.	.	.	.	.	.	.	.
.	.	.	16f#\)	16a/)	.	.	.	.	.	.	.	.	.	.	.	.
.	.	.	.	.	.	24dd\JJ	.	.	.	.	.	.	.	.	.	.
8r	.	.	(>16d\	(<16f#/	.	24a\LL	.	.	.	.	.	.	.	.	.	.
.	.	.	.	.	.	24dd\	.	.	.	.	.	.	.	.	.	.
.	.	.	16f#\JJ)	16a/JJ)	.	.	.	.	.	.	.	.	.	.	.	.
.	.	.	.	.	.	24ff#\JJ	.	.	.	.	.	.	.	.	.	.
=6	=6	=6	=6	=6	=6	=6	=6	=6	=6	=6	=6	=6	=6	=6	=6	=6
8A\	.	2ryy	(>16c#\LL	(<16e/LL	.	8ff#\L	.	2ryy	2ryy	2ryy	.	.	2ryy	2ryy	2ryy	8r
.	.	.	16e\)	16a/)	.	.	.	.	.	.	.	.	.	.	.	.
8r	.	.	(>16c#\	(<16e/	.	8ee\J	.	.	.	.	.	.	.	.	.	8aa\
.	.	.	16e\JJ)	16a/JJ)	.	.	.	.	.	.	.	.	.	.	.	.
!	!	!	!	!	!	!	!	!	!	!	!	!	!	!	!	!LO:TUP:a:problem:klamra łukowa, kropka zamiast numeru
8A\	.	.	(>16c#\LL	(<16e/LL	.	4r	.	.	.	.	.	.	.	.	.	24aa\LL
.	.	.	.	.	.	.	.	.	.	.	.	.	.	.	.	24ee\
.	.	.	16e\)	16a/)	.	.	.	.	.	.	.	.	.	.	.	.
.	.	.	.	.	.	.	.	.	.	.	.	.	.	.	.	24cc#\JJ
!	!	!	!	!	!	!	!	!	!	!	!	!	!	!	!	!LO:TUP:a:problem:klamra łukowa, kropka zamiast numeru
8r	.	.	(>16c#\	(<16e/	.	.	.	.	.	.	.	.	.	.	.	24a\LL
.	.	.	.	.	.	.	.	.	.	.	.	.	.	.	.	24cc#\
.	.	.	16e\JJ)	16a/JJ)	.	.	.	.	.	.	.	.	.	.	.	.
.	.	.	.	.	.	.	.	.	.	.	.	.	.	.	.	24ee\JJ
=7	=7	=7	=7	=7	=7	=7	=7	=7	=7	=7	=7	=7	=7	=7	=7	=7
8B\	.	2ryy	(<16B/LL	(<16d/LL	.	8r	.	2ryy	2ryy	2ryy	.	.	2ryy	2ryy	2ryy	8ee\L
.	.	.	16d/)	16g#X/)	.	.	.	.	.	.	.	.	.	.	.	.
8r	.	.	(<16B/	(<16d/	.	8bb\	.	.	.	.	.	.	.	.	.	8dd\J
.	.	.	16d/JJ)	16g#/JJ)	.	.	.	.	.	.	.	.	.	.	.	.
!	!	!	!	!	!	!LO:TX:a:t=P:problem:mixed beam	!	!	!	!	!	!	!	!	!	!
8E\	.	.	(<16B/LL	(<16d/LL	.	24bb\LL	.	.	.	.	.	.	.	.	.	4r
.	.	.	.	.	.	24dd\	.	.	.	.	.	.	.	.	.	.
.	.	.	16d/)	16g#/)	.	.	.	.	.	.	.	.	.	.	.	.
.	.	.	.	.	.	24e/JJ	.	.	.	.	.	.	.	.	.	.
8r	.	.	(<16B/	(<16d/	.	24e/LL	.	.	.	.	.	.	.	.	.	.
.	.	.	.	.	.	24b/	.	.	.	.	.	.	.	.	.	.
.	.	.	16d/JJ)	16g#/JJ)	.	.	.	.	.	.	.	.	.	.	.	.
.	.	.	.	.	.	24dd/JJ	.	.	.	.	.	.	.	.	.	.
!	!	!	!	!	!	!LO:LB:g=original	!	!	!	!	!	!	!	!	!	!
=8	=8	=8	=8	=8	=8	=8	=8	=8	=8	=8	=8	=8	=8	=8	=8	=8
8A\	.	2ryy	(<16A/LL	(<16c#/LL	.	8dd\L	.	2ryy	2ryy	2ryy	.	.	2ryy	2ryy	2ryy	8r
.	.	.	16c#/)	16e/)	.	.	.	.	.	.	.	.	.	.	.	.
8r	.	.	(<16A/	(<16c#/	.	8cc#\J	.	.	.	.	.	.	.	.	.	8dd\
.	.	.	16c#/JJ)	16e/JJ)	.	.	.	.	.	.	.	.	.	.	.	.
!	!	!	!	!	!	!	!	!	!	!	!	!	!	!	!	!LO:TUP:a:problem:klamra łukowa, kropka zamiast numeru
8G#X\	X 6	.	(<16G#X/LL	(<16B/LL	.	8r	.	.	.	.	.	.	.	.	.	24ee\LL
.	.	.	.	.	.	.	.	.	.	.	.	.	.	.	.	24dd\
.	.	.	16B/)	16e/)	.	.	.	.	.	.	.	.	.	.	.	.
.	.	.	.	.	.	.	.	.	.	.	.	.	.	.	.	24cc#\JJ
!	!	!	!	!	!	!	!	!	!	!	!	!	!	!	!	!LO:TUP:a:problem:klamra łukowa, kropka zamiast numeru
8r	.	.	(<16G#/	(<16B/	.	8b\	.	.	.	.	.	.	.	.	.	24b\LL
.	.	.	.	.	.	.	.	.	.	.	.	.	.	.	.	24cc#\
.	.	.	16B/JJ)	16e/JJ)	.	.	.	.	.	.	.	.	.	.	.	.
.	.	.	.	.	.	.	.	.	.	.	.	.	.	.	.	24dd\JJ
!	!	!	!	!LO:LB:g=original	!	!	!	!	!	!	!	!	!	!	!	!
=9	=9	=9	=9	=9	=9	=9	=9	=9	=9	=9	=9	=9	=9	=9	=9	=9
!	!	!	!	!	!	!	!	!	!	!	!LO:N:vis=00	!	!	!	!	!
8A\	.	2ryy	(<16A/LL	(<16c#/LL	.	24a\LL	.	2ryy	2ryy	2ryy	0r	.	2ryy	2ryy	2ryy	8cc#\L
.	.	.	.	.	.	24cc#\	.	.	.	.	.	.	.	.	.	.
.	.	.	16c#/)	16e/)	.	.	.	.	.	.	.	.	.	.	.	.
.	.	.	.	.	.	24dd\JJ	.	.	.	.	.	.	.	.	.	.
8r	.	.	(<16A/	(<16c#/	.	24ee\LL	.	.	.	.	.	.	.	.	.	8ee\J
.	.	.	.	.	.	24ff#\	.	.	.	.	.	.	.	.	.	.
.	.	.	16c#/JJ)	16e/JJ)	.	.	.	.	.	.	.	.	.	.	.	.
.	.	.	.	.	.	24ee\JJ	.	.	.	.	.	.	.	.	.	.
8G#X\	X 6	.	(<32G#X/LLL	(<16B/LL	.	24e/LL	.	.	.	.	.	.	.	.	.	[>4ee\
.	.	.	32B/)	.	.	.	.	.	.	.	.	.	.	.	.	.
.	.	.	.	.	.	24g#X/	.	.	.	.	.	.	.	.	.	.
.	.	.	(<32G#/	16e/)	.	.	.	.	.	.	.	.	.	.	.	.
.	.	.	.	.	.	24b/JJ	.	.	.	.	.	.	.	.	.	.
.	.	.	32B/JJJ	.	.	.	.	.	.	.	.	.	.	.	.	.
8r	.	.	16G#/LL	(<16B/	.	24dd\LL	.	.	.	.	.	.	.	.	.	.
.	.	.	.	.	.	24ee\	.	.	.	.	.	.	.	.	.	.
.	.	.	16B/JJ)	16e/JJ)	.	.	.	.	.	.	.	.	.	.	.	.
.	.	.	.	.	.	24dd\JJ	.	.	.	.	.	.	.	.	.	.
!	!	!	!LO:LB:g=original	!	!	!	!	!	!	!	!	!	!	!	!	!LO:LB:g=original
=10	=10	=10	=10	=10	=10	=10	=10	=10	=10	=10	=10	=10	=10	=10	=10	=10
!LO:TX:a:t=P:problem:mixed beam	!	!	!LO:TX:a:t=P:problem:mixed beam	!	!	!	!	!	!	!	!	!	!	!	!	!
8A\L	.	2ryy	8A/L	8c#/	.	24cc#\LL	.	2ryy	2ryy	2ryy	.	.	2ryy	2ryy	2ryy	8ee\L]
.	.	.	.	.	.	24ee\	.	.	.	.	.	.	.	.	.	.
.	.	.	.	.	.	24aa\JJ	.	.	.	.	.	.	.	.	.	.
!	!	!	!	!	!	!	!	!	!	!	!	!	!	!	!	!LO:TUP:a:problem:klamra łukowa, kropka zamiast numeru
8D\	.	.	8f#\	4a/	.	24ff#\LL	.	.	.	.	.	.	.	.	.	24ff#\L
.	.	.	.	.	.	24ee\	.	.	.	.	.	.	.	.	.	24ee\
.	.	.	.	.	.	24dd\JJ	.	.	.	.	.	.	.	.	.	24dd\JJ
8E\	.	.	8e\	.	.	8cc#\L	.	.	.	.	.	.	.	.	.	8cc#\L
8EE/J	X #4r	.	8e\J	8g#X/	.	8b\J	.	.	.	.	.	.	.	.	.	8b\J
!LO:LB:g=original	!	!	!	!	!	!	!	!	!	!	!	!	!	!	!	!
=11	=11	=11	=11	=11	=11	=11	=11	=11	=11	=11	=11	=11	=11	=11	=11	=11
!LO:TX:a:t=P:problem:mixed beam	!	!	!	!	!	!	!	!	!	!	!	!	!	!	!	!
8AA/L	.	2ryy	4e\	4a/	.	4a/	.	2ryy	2ryy	2ryy	.	.	2ryy	2ryy	2ryy	4a/
16A\L	.	.	.	.	.	.	.	.	.	.	.	.	.	.	.	.
16Gn\JJ	.	.	.	.	.	.	.	.	.	.	.	.	.	.	.	.
!	!	!	!LO:TX:t=P:problem:znak segno nad kreską taktową	!	!	!	!	!	!	!	!	!	!	!	!	!
8F#\L	.	.	4r	4r	.	8r	.	.	.	.	.	.	.	.	.	4r
8E\J	.	.	.	.	.	[>8aa\	.	.	.	.	.	.	.	.	.	.
!	!	!	!LO:TX:a:t=[segno]	!	!	!	!	!	!	!	!	!	!	!	!	!
=12	=12	=12	=12	=12	=12	=12	=12	=12	=12	=12	=12	=12	=12	=12	=12	=12
8D#X\	.	2ryy	(>16B\LL	(<16f#/LL	.	24aa\LL]	.	2ryy	2ryy	2ryy	.	.	2ryy	2ryy	2ryy	4r
.	.	.	.	.	.	24cccn\	.	.	.	.	.	.	.	.	.	.
.	.	.	16f#\)	16a/)	.	.	.	.	.	.	.	.	.	.	.	.
.	.	.	.	.	.	24bb\JJ	.	.	.	.	.	.	.	.	.	.
8r	.	.	(>16d#X\	(<16f#/	.	24aa\LL	.	.	.	.	.	.	.	.	.	.
.	.	.	.	.	.	24bb\	.	.	.	.	.	.	.	.	.	.
.	.	.	16f#\JJ)	16a/JJ)	.	.	.	.	.	.	.	.	.	.	.	.
.	.	.	.	.	.	24gg\JJ	.	.	.	.	.	.	.	.	.	.
8BB/	.	.	(>16d#\LL	(<16f#/LL	.	24ff#\LL	.	.	.	.	.	.	.	.	.	8r
.	.	.	.	.	.	24gg\	.	.	.	.	.	.	.	.	.	.
.	.	.	16f#\)	16a/)	.	.	.	.	.	.	.	.	.	.	.	.
.	.	.	.	.	.	24ee\JJ	.	.	.	.	.	.	.	.	.	.
8r	.	.	(>16d#\	(<16f#/	.	24dd#X\LL	.	.	.	.	.	.	.	.	.	8ff#\
.	.	.	.	.	.	24ee\	.	.	.	.	.	.	.	.	.	.
.	.	.	16f#\JJ)	16a/JJ)	.	.	.	.	.	.	.	.	.	.	.	.
.	.	.	.	.	.	24dd#\JJ	.	.	.	.	.	.	.	.	.	.
=13	=13	=13	=13	=13	=13	=13	=13	=13	=13	=13	=13	=13	=13	=13	=13	=13
!	!	!	!	!	!	!LO:TX:a:t=P:problem:mixed beam	!	!	!	!	!LO:N:vis=00	!	!	!	!	!
8E\	.	2ryy	(>16e\LL	(<16g/LL	.	8ee\L	.	2ryy	2ryy	2ryy	0r	.	2ryy	2ryy	2ryy	16gg\LL
.	.	.	16g\)	16b/)	.	.	.	.	.	.	.	.	.	.	.	16b\
8r	.	.	(>16e\	(<16g/	.	8e/J	.	.	.	.	.	.	.	.	.	16ee\
.	.	.	16g\JJ)	16b/JJ)	.	.	.	.	.	.	.	.	.	.	.	16ff#\JJ
8EE/	.	.	(>16e\LL	(<16g/LL	.	4r	.	.	.	.	.	.	.	.	.	4gg\
.	.	.	16g\)	16b/)	.	.	.	.	.	.	.	.	.	.	.	.
8r	.	.	(>16e\	(<16g/	.	.	.	.	.	.	.	.	.	.	.	.
.	.	.	16g\JJ)	16b/JJ)	.	.	.	.	.	.	.	.	.	.	.	.
=14	=14	=14	=14	=14	=14	=14	=14	=14	=14	=14	=14	=14	=14	=14	=14	=14
*	*	*	*	*	*	*	*	*	*	*	*	*	*	*	*	*tuplet
!	!	!	!	!	!	!	!	!	!	!	!	!	!	!	!	!LO:TUP:a
8AA/	.	2ryy	(>16c#\LL	(<16e/LL	.	8cc#\	.	2ryy	2ryy	2ryy	.	.	2ryy	2ryy	2ryy	24gg\LL
.	.	.	.	.	.	.	.	.	.	.	.	.	.	.	.	24bb\
.	.	.	16e\)	16g/)	.	.	.	.	.	.	.	.	.	.	.	.
.	.	.	.	.	.	.	.	.	.	.	.	.	.	.	.	24aa\JJ
!	!	!	!	!	!	!	!	!	!	!	!	!	!	!	!	!LO:TUP:a
8r	.	.	(>16c#\	(<16e/	.	8r	.	.	.	.	.	.	.	.	.	24gg\LL
.	.	.	.	.	.	.	.	.	.	.	.	.	.	.	.	24aa\
.	.	.	16e\JJ)	16g/JJ)	.	.	.	.	.	.	.	.	.	.	.	.
.	.	.	.	.	.	.	.	.	.	.	.	.	.	.	.	24ff#\JJ
!	!	!	!	!	!	!	!	!	!	!	!	!	!	!	!	!LO:TUP:a
8A\	.	.	(>16c#\LL	(<16e/LL	.	8ee\	.	.	.	.	.	.	.	.	.	24ee\LL
.	.	.	.	.	.	.	.	.	.	.	.	.	.	.	.	24ff#\
.	.	.	16e\)	16g/)	.	.	.	.	.	.	.	.	.	.	.	.
.	.	.	.	.	.	.	.	.	.	.	.	.	.	.	.	24dd\JJ
!	!	!	!	!	!	!	!	!	!	!	!	!	!	!	!	!LO:TUP:a
8r	.	.	(>16c#\	(<16e/	.	8r	.	.	.	.	.	.	.	.	.	24cc#\LL
.	.	.	.	.	.	.	.	.	.	.	.	.	.	.	.	24dd\
.	.	.	16e\JJ)	16g/JJ)	.	.	.	.	.	.	.	.	.	.	.	.
.	.	.	.	.	.	.	.	.	.	.	.	.	.	.	.	24b\JJ
=15	=15	=15	=15	=15	=15	=15	=15	=15	=15	=15	=15	=15	=15	=15	=15	=15
8D\	.	2ryy	(>16d\LL	(<16f#/LL	.	8ff#\L	.	2ryy	2ryy	2ryy	.	.	2ryy	2ryy	2ryy	8dd\L|
.	.	.	16f#\)	16a/)	.	.	.	.	.	.	.	.	.	.	.	.
!	!	!	!	!	!	!	!	!	!	!	!	!	!	!	!	!LO:TUP:a
8r	.	.	(>16d\	(<16f#/	.	24aa\L	.	.	.	.	.	.	.	.	.	24ff#\L
.	.	.	.	.	.	24bb\	.	.	.	.	.	.	.	.	.	24gg\
.	.	.	16f#\JJ)	16a/JJ)	.	.	.	.	.	.	.	.	.	.	.	.
.	.	.	.	.	.	24aa\JJ	.	.	.	.	.	.	.	.	.	24ff#\JJ
!	!	!	!	!	!	!	!	!	!	!	!	!	!	!	!	!LO:TUP:a
8GG/	.	.	(<16B/LL	(<16d/LL	.	24gg\LL	.	.	.	.	.	.	.	.	.	24ee\LL
.	.	.	.	.	.	24aa\	.	.	.	.	.	.	.	.	.	24ff#\
.	.	.	16d/)	16g/)	.	.	.	.	.	.	.	.	.	.	.	.
.	.	.	.	.	.	24gg\JJ	.	.	.	.	.	.	.	.	.	24ee\JJ
!	!	!	!	!	!	!	!	!	!	!	!	!	!	!	!	!LO:TUP:a
8r	.	.	(<16B/	(<16d/	.	24ff#\LL	.	.	.	.	.	.	.	.	.	24dd\LL
.	.	.	.	.	.	24gg\	.	.	.	.	.	.	.	.	.	24ee\
.	.	.	16d/JJ)	16g/JJ)	.	.	.	.	.	.	.	.	.	.	.	.
.	.	.	.	.	.	24ff#\JJ	.	.	.	.	.	.	.	.	.	24dd\JJ
!	!	!	!	!	!	!LO:LB:g=original	!	!	!	!	!	!	!	!	!	!
=16	=16	=16	=16	=16	=16	=16	=16	=16	=16	=16	=16	=16	=16	=16	=16	=16
*	*	*	*	*	*	*	*	*	*	*	*	*	*	*	*	*Xtuplet
!	!	!	!	!	!	!LO:TX:a:t=P:problem:mixed beam	!	!	!	!	!	!	!	!	!	!
8AA/	.	2ryy	(>16c#\LL	(<16e/LL	.	8ee\L	.	2ryy	2ryy	2ryy	.	.	2ryy	2ryy	2ryy	8cc#\L
.	.	.	16e\)	16a/)	.	.	.	.	.	.	.	.	.	.	.	.
8r	.	.	(>16c#\	(<16e/	.	8a/J	.	.	.	.	.	.	.	.	.	8aa\J
.	.	.	16e\JJ)	16a/JJ)	.	.	.	.	.	.	.	.	.	.	.	.
!	!	!	!	!	!	!	!	!	!	!	!	!	!	!	!	!LO:TUP:a:problem:klamra łukowa, kropka zamiast numeru
8C#/	.	.	(>16c#\LL	(<16e/LL	.	8r	.	.	.	.	.	.	.	.	.	24aa\LL
.	.	.	.	.	.	.	.	.	.	.	.	.	.	.	.	24gg\
.	.	.	16e\)	16a/)	.	.	.	.	.	.	.	.	.	.	.	.
.	.	.	.	.	.	.	.	.	.	.	.	.	.	.	.	24ff#\JJ
!	!	!	!	!	!	!	!	!	!	!	!	!	!	!	!	!LO:TUP:a:problem:klamra łukowa, kropka zamiast numeru
8r	.	.	(>16c#\	(<16e/	.	8ee\	.	.	.	.	.	.	.	.	.	24ee\LL
.	.	.	.	.	.	.	.	.	.	.	.	.	.	.	.	24ff#\
.	.	.	16e\JJ)	16a/JJ)	.	.	.	.	.	.	.	.	.	.	.	.
.	.	.	.	.	.	.	.	.	.	.	.	.	.	.	.	24gg\JJ
=17	=17	=17	=17	=17	=17	=17	=17	=17	=17	=17	=17	=17	=17	=17	=17	=17
!	!	!	!	!	!	!	!	!	!	!	!LO:N:vis=0	!	!	!	!	!
8D/	.	2ryy	(>16d\LL	(<16f#/LL	.	24dd\LL	.	2ryy	2ryy	2ryy	1r	.	2ryy	2ryy	2ryy	8ff#\L
.	.	.	.	.	.	24ff#\	.	.	.	.	.	.	.	.	.	.
.	.	.	16f#\)	16a/)	.	.	.	.	.	.	.	.	.	.	.	.
.	.	.	.	.	.	24gg\JJ	.	.	.	.	.	.	.	.	.	.
8r	.	.	(>16d\	(<16f#/	.	24aa\LL	.	.	.	.	.	.	.	.	.	8aa\J
.	.	.	.	.	.	24bb\	.	.	.	.	.	.	.	.	.	.
.	.	.	16f#\JJ)	16a/JJ)	.	.	.	.	.	.	.	.	.	.	.	.
.	.	.	.	.	.	24aa\JJ	.	.	.	.	.	.	.	.	.	.
!	!	!	!	!LO:LB:g=original	!	!	!	!	!	!	!	!	!	!	!	!
8C#/	.	.	(>16c#\LL	(<16e/LL	.	24a\LL	.	.	.	.	.	.	.	.	.	[>4aa\
.	.	.	.	.	.	24cc#\	.	.	.	.	.	.	.	.	.	.
.	.	.	16e\)	16a/)	.	.	.	.	.	.	.	.	.	.	.	.
.	.	.	.	.	.	24ee\JJ	.	.	.	.	.	.	.	.	.	.
8r	.	.	(>16c#\	(<16e/	.	24gg\LL	.	.	.	.	.	.	.	.	.	.
.	.	.	.	.	.	24aa\	.	.	.	.	.	.	.	.	.	.
.	.	.	16e\JJ)	16a/JJ)	.	.	.	.	.	.	.	.	.	.	.	.
.	.	.	.	.	.	24gg\JJ	.	.	.	.	.	.	.	.	.	.
!	!	!	!	!	!	!	!	!	!	!	!	!	!	!	!	!LO:LB:g=original
=18	=18	=18	=18	=18	=18	=18	=18	=18	=18	=18	=18	=18	=18	=18	=18	=18
!LO:TX:a:t=P:problem:mixed beam	!	!	!	!	!	!	!	!	!	!	!	!	!	!	!	!
8D\L	.	2ryy	8d/L	8f#/	.	24ff#\LL	.	2ryy	2ryy	2ryy	.	.	2ryy	2ryy	2ryy	8aa\L]
.	.	.	.	.	.	24aa\	.	.	.	.	.	.	.	.	.	.
.	.	.	.	.	.	24ddd\JJ	.	.	.	.	.	.	.	.	.	.
*	*	*	*	*	*	*	*	*	*	*	*	*	*	*	*	*tuplet
!	!	!	!	!	!	!	!	!	!	!	!	!	!	!	!	!LO:TUP:a
8G\	.	.	8B/	4dd\	.	24bb\LL	.	.	.	.	.	.	.	.	.	24bb\L
.	.	.	.	.	.	24aa\	.	.	.	.	.	.	.	.	.	24aa\
.	.	.	.	.	.	24gg\JJ	.	.	.	.	.	.	.	.	.	24gg\JJ
8A\	.	.	8A/	.	.	8ff#\L	.	.	.	.	.	.	.	.	.	8ff#\L
8AA/J	.	.	8A/J	8cc#\	.	8eeT>\J	.	.	.	.	.	.	.	.	.	8eeT>\J
=19	=19	=19	=19	=19	=19	=19	=19	=19	=19	=19	=19	=19	=19	=19	=19	=19
!LO:TX:a:t=P:problem:mixed beam	!	!	!	!	!	!	!	!	!	!	!LO:TX:a:t=P:problem:inicjał przed kluczem w pierwszym systemie	!	!	!	!	!
8D\L	.	2ryy	4A/	4dd\	.	4dd\	.	2ryy	2ryy	2ryy	4dd\	Be-	2ryy	2ryy	2ryy	4dd\
8F#\	.	.	.	.	.	.	.	.	.	.	.	.	.	.	.	.
!	!	!	!LO:TX:t=P:problem:fermata pod i nad pauzą	!LO:TX:t=P:problem:fermata nad i pod pauzą (dolna bez kropki)	!	!LO:TX:t=P:problem:fermata nad i pod pauzą	!	!	!	!	!	!	!	!	!	!LO:TX:a:t=P:problem:fermata nad i pod pauzą
8C#/	.	.	4r;>;<	4r;>;<	.	4r;>;<	.	.	.	.	4ee\	-ne-	.	.	.	4r;>;<
8AA/J	.	.	.	.	.	.	.	.	.	.	.	.	.	.	.	.
!	!	!	!LO:LB:g=original	!	!	!	!	!	!	!	!	!	!	!	!	!
=20	=20	=20	=20	=20	=20	=20	=20	=20	=20	=20	=20	=20	=20	=20	=20	=20
!	!	!	!LO:N:vis=00	!	!	!	!	!	!	!	!	!	!	!	!	!LO:TX:a:t=i
8D/L	.	2ryy	0r	2r	.	2r	.	2ryy	2ryy	2ryy	8ff#\	-di-	2ryy	2ryy	2ryy	2r
8BB/	.	.	.	.	.	.	.	.	.	.	16ee\	-ctus	.	.	.	.
.	.	.	.	.	.	.	.	.	.	.	16dd\	qui	.	.	.	.
.	.	.	.	.	.	.	.	.	.	.	8qff#/	.	.	.	.	.
8GG/	.	.	.	.	.	.	.	.	.	.	8ee\L	ve-	.	.	.	.
8AA/J	.	.	.	.	.	.	.	.	.	.	16dd\L	.	.	.	.	.
.	.	.	.	.	.	.	.	.	.	.	16cc#\JJ	.	.	.	.	.
=21	=21	=21	=21	=21	=21	=21	=21	=21	=21	=21	=21	=21	=21	=21	=21	=21
!	!	!	!	!	!LO:DY:rj:b:t=p&colon;	!	!LO:DY:rj:b:t=p&colon;	!	!	!	!	!	!	!	!	!
4DD/	.	2ryy	.	8d/L	p	8d/L	p	2ryy	2ryy	2ryy	4dd\	-nit	2ryy	2ryy	2ryy	8.dd\L
.	.	.	.	8f#/	.	8f#/	.	.	.	.	.	.	.	.	.	.
.	.	.	.	.	.	.	.	.	.	.	.	.	.	.	.	32ee\LL
.	.	.	.	.	.	.	.	.	.	.	.	.	.	.	.	32ff#\JJJ
.	.	.	.	.	.	.	.	.	.	.	.	.	.	.	.	8qff#/
4r	.	.	.	8c#/	.	8c#/	.	.	.	.	4r	.	.	.	.	8.ee\L
.	.	.	.	8A/J	.	8A/J	.	.	.	.	.	.	.	.	.	.
.	.	.	.	.	.	.	.	.	.	.	.	.	.	.	.	32ff#\LL
.	.	.	.	.	.	.	.	.	.	.	.	.	.	.	.	32gg\JJJ
=22	=22	=22	=22	=22	=22	=22	=22	=22	=22	=22	=22	=22	=22	=22	=22	=22
.	.	.	.	.	.	.	.	.	.	.	.	.	.	.	.	8qqgg/
2r	.	2ryy	.	8d/L	.	8d/L	.	2ryy	2ryy	2ryy	2r	.	2ryy	2ryy	2ryy	8ff#\L
.	.	.	.	8B/	.	8B/	.	.	.	.	.	.	.	.	.	16ee\L
.	.	.	.	.	.	.	.	.	.	.	.	.	.	.	.	16dd\JJ
.	.	.	.	.	.	.	.	.	.	.	.	.	.	.	.	8qqff#/
.	.	.	.	8G/	.	8G/	.	.	.	.	.	.	.	.	.	8ee\L
.	.	.	.	8A/J	.	8A/J	.	.	.	.	.	.	.	.	.	16dd\L
.	.	.	.	.	.	.	.	.	.	.	.	.	.	.	.	16cc#\JJ
!LO:LB:g=original	!	!	!	!	!	!	!	!	!	!	!	!	!	!	!	!
=23	=23	=23	=23	=23	=23	=23	=23	=23	=23	=23	=23	=23	=23	=23	=23	=23
4D/	.	2ryy	.	4d/	.	4d/	.	2ryy	2ryy	2ryy	8r	.	2ryy	2ryy	2ryy	4dd\
.	.	.	.	.	.	.	.	.	.	.	8ff#\	qui	.	.	.	.
8r	.	.	.	4r	.	8r	.	.	.	.	8ff#\	ve-	.	.	.	4r
!	!	!	!	!	!	!	!LO:DY:b:t=p.	!	!	!	!	!	!	!	!	!
8D/	.	.	.	.	.	[>8aa\	p	.	.	.	16ee\	-nit	.	.	.	.
.	.	.	.	.	.	.	.	.	.	.	16dd\	in	.	.	.	.
=24	=24	=24	=24	=24	=24	=24	=24	=24	=24	=24	=24	=24	=24	=24	=24	=24
!	!	!	!LO:N:vis=0	!LO:N:vis=0	!	!	!	!	!	!	!	!	!	!	!	!LO:N:vis=0
8C#/L	X 6	2ryy	1r	1r	.	8aa\]	.	2ryy	2ryy	2ryy	16ee\LL	no-	2ryy	2ryy	2ryy	1r
.	.	.	.	.	.	.	.	.	.	.	16gg#X\JJ	.	.	.	.	.
8AA/	.	.	.	.	.	4aa\	.	.	.	.	16aa\	-mi-	.	.	.	.
.	.	.	.	.	.	.	.	.	.	.	16ff#\	-ne	.	.	.	.
.	.	.	.	.	.	.	.	.	.	.	8qqee/	.	.	.	.	.
8BB/	X 7	.	.	.	.	.	.	.	.	.	8.dd\	Do-	.	.	.	.
8EE/J	7 #	.	.	.	.	8gg#X\	.	.	.	.	.	.	.	.	.	.
.	.	.	.	.	.	.	.	.	.	.	16dd\	-mi-	.	.	.	.
!	!	!	!	!	!	!	!	!	!	!	!LO:LB:g=original	!	!	!	!	!
=25	=25	=25	=25	=25	=25	=25	=25	=25	=25	=25	=25	=25	=25	=25	=25	=25
8AA/	.	2ryy	.	.	.	4aa\	.	2ryy	2ryy	2ryy	8cc#\	-ni	2ryy	2ryy	2ryy	.
8r	.	.	.	.	.	.	.	.	.	.	8ee\	qui	.	.	.	.
8C#/	.	.	.	.	.	4r	.	.	.	.	8ee\	ve-	.	.	.	.
8r	.	.	.	.	.	.	.	.	.	.	16dd\	-nit	.	.	.	.
.	.	.	.	.	.	.	.	.	.	.	16ee\	in	.	.	.	.
=26	=26	=26	=26	=26	=26	=26	=26	=26	=26	=26	=26	=26	=26	=26	=26	=26
!	!	!	!	!	!LO:DY:rj:b:t=p&colon;	!	!	!	!	!	!	!	!	!	!	!LO:N:vis=1
8D\	.	2ryy	(>16d\LL	(<16f#/LL	p	8r	.	2ryy	2ryy	2ryy	16ff#\	no-	2ryy	2ryy	2ryy	2r
.	.	.	16f#\)	16a/	.	.	.	.	.	.	16ee\	-mi-	.	.	.	.
!	!	!	!	!	!	!	!LO:DY:b:t=p.	!	!	!	!	!	!	!	!	!
8r	.	.	(>16d\	16f#/	.	8aa\	p	.	.	.	8dd\	-ne	.	.	.	.
.	.	.	16f#\JJ)	16a/JJ)	.	.	.	.	.	.	.	.	.	.	.	.
!	!	!	!	!	!	!LO:LB:g=original	!	!	!	!	!	!	!	!	!	!
8D\	.	.	(>16d\LL	(<16f#/LL	.	24aa\LL	.	.	.	.	8r	.	.	.	.	.
.	.	.	.	.	.	24ff#\	.	.	.	.	.	.	.	.	.	.
.	.	.	16f#\)	16a/	.	.	.	.	.	.	.	.	.	.	.	.
.	.	.	.	.	.	24dd\JJ	.	.	.	.	.	.	.	.	.	.
8r	.	.	(>16d\	16f#/	.	24a\LL	.	.	.	.	8ff#\	qui	.	.	.	.
.	.	.	.	.	.	24dd\	.	.	.	.	.	.	.	.	.	.
.	.	.	16f#\JJ)	16a/JJ)	.	.	.	.	.	.	.	.	.	.	.	.
.	.	.	.	.	.	24ff#\JJ	.	.	.	.	.	.	.	.	.	.
=27	=27	=27	=27	=27	=27	=27	=27	=27	=27	=27	=27	=27	=27	=27	=27	=27
8AA/	.	2ryy	(>16c#\LL	(<16e/LL	.	8ff#\L	.	2ryy	2ryy	2ryy	8ff#\	ve-	2ryy	2ryy	2ryy	8r
.	.	.	16e\)	16a/	.	.	.	.	.	.	.	.	.	.	.	.
8r	.	.	(>16c#\	16e/	.	8ee\J	.	.	.	.	8ee\	-nit	.	.	.	8aa\
.	.	.	16e\JJ)	16a/JJ)	.	.	.	.	.	.	.	.	.	.	.	.
*	*	*	*	*	*	*	*	*	*	*	*	*	*	*	*	*Xtuplet
!	!	!	!	!	!	!	!	!	!	!	!	!	!	!	!	!LO:TUP:a:problem:klamra łukowa, kropka zamiast numeru
8AA/	.	.	(>16c#\LL	(<16e/LL	.	4r	.	.	.	.	8r	.	.	.	.	24aa\LL
.	.	.	.	.	.	.	.	.	.	.	.	.	.	.	.	24ee\
.	.	.	16e\)	16a/	.	.	.	.	.	.	.	.	.	.	.	.
.	.	.	.	.	.	.	.	.	.	.	.	.	.	.	.	24cc#\JJ
!	!	!	!	!	!	!	!	!	!	!	!	!	!	!	!	!LO:TUP:a:problem:klamra łukowa, kropka zamiast numeru
8r	.	.	(>16c#\	16e/	.	.	.	.	.	.	8ff#\	in	.	.	.	24a\LL
.	.	.	.	.	.	.	.	.	.	.	.	.	.	.	.	24cc#\
.	.	.	16e\JJ)	16a/JJ)	.	.	.	.	.	.	.	.	.	.	.	.
.	.	.	.	.	.	.	.	.	.	.	.	.	.	.	.	24ee\JJ
=28	=28	=28	=28	=28	=28	=28	=28	=28	=28	=28	=28	=28	=28	=28	=28	=28
8BB/	X 7	2ryy	(<16B/LL	(<16d/LL	.	8r	.	2ryy	2ryy	2ryy	16ee\	no-	2ryy	2ryy	2ryy	8ee\L
.	.	.	16d/)	16g#X/	.	.	.	.	.	.	16dd\	-mi-	.	.	.	.
8r	.	.	(<16B/	16d/	.	8bb\	.	.	.	.	8dd\	-ne	.	.	.	8dd\J
.	.	.	16d/JJ)	16g#/JJ)	.	.	.	.	.	.	.	.	.	.	.	.
!	!	!	!	!	!	!LO:TX:a:t=P:problem:mixed beam	!	!	!	!	!	!	!	!	!	!
8E\	7 #	.	(<16B/LL	(<16d/LL	.	24bb\LL	.	.	.	.	8r	.	.	.	.	4r
.	.	.	.	.	.	24dd\	.	.	.	.	.	.	.	.	.	.
.	.	.	16d/)	16g#/	.	.	.	.	.	.	.	.	.	.	.	.
.	.	.	.	.	.	24e/JJ	.	.	.	.	.	.	.	.	.	.
8r	.	.	(<16B/	16d/	.	24e/LL	.	.	.	.	8dd\	qui	.	.	.	.
.	.	.	.	.	.	24b/	.	.	.	.	.	.	.	.	.	.
.	.	.	16d/JJ)	16g#/JJ)	.	.	.	.	.	.	.	.	.	.	.	.
.	.	.	.	.	.	24dd/JJ	.	.	.	.	.	.	.	.	.	.
=29	=29	=29	=29	=29	=29	=29	=29	=29	=29	=29	=29	=29	=29	=29	=29	=29
8A\	.	2ryy	(<16A/LL	(<16c#/LL	.	8dd\L	.	2ryy	2ryy	2ryy	8cc#\	ve-	2ryy	2ryy	2ryy	8r
.	.	.	16c#/)	16e/	.	.	.	.	.	.	.	.	.	.	.	.
8r	.	.	(<16A/	16c#/	.	8cc#\J	.	.	.	.	16ee\	-nit	.	.	.	8ee\
.	.	.	16c#/JJ)	16e/JJ)	.	.	.	.	.	.	16ee\	qui	.	.	.	.
!	!	!	!	!	!	!	!	!	!	!	!	!	!	!	!	!LO:TUP:a:problem:klamra łukowa, kropka zamiast numeru
8G#X\	X 6	.	(<16G#X/LL	(<16B/LL	.	4r	.	.	.	.	4ee\	ve-	.	.	.	24ee\LL
.	.	.	.	.	.	.	.	.	.	.	.	.	.	.	.	24dd\
.	.	.	16B/)	16e/	.	.	.	.	.	.	.	.	.	.	.	.
.	.	.	.	.	.	.	.	.	.	.	.	.	.	.	.	24cc#\JJ
!	!	!	!	!	!	!	!	!	!	!	!	!	!	!	!	!LO:TUP:a:problem:klamra łukowa, kropka zamiast numeru
8r	.	.	(<16G#/	16B/	.	.	.	.	.	.	.	.	.	.	.	24b\LL
.	.	.	.	.	.	.	.	.	.	.	.	.	.	.	.	24cc#\
.	.	.	16B/JJ)	16e/JJ)	.	.	.	.	.	.	.	.	.	.	.	.
.	.	.	.	.	.	.	.	.	.	.	.	.	.	.	.	24dd\JJ
!	!	!	!	!LO:LB:g=original	!	!	!	!	!	!	!	!	!	!	!	!LO:LB:g=original
=30	=30	=30	=30	=30	=30	=30	=30	=30	=30	=30	=30	=30	=30	=30	=30	=30
8A\	.	2ryy	(<16A/LL	16c#/LL	.	24a\LL	.	2ryy	2ryy	2ryy	8ee\	-nit	2ryy	2ryy	2ryy	8cc#\L
.	.	.	.	.	.	24cc#\	.	.	.	.	.	.	.	.	.	.
.	.	.	16c#/)	16e/	.	.	.	.	.	.	.	.	.	.	.	.
.	.	.	.	.	.	24dd\JJ	.	.	.	.	.	.	.	.	.	.
8r	.	.	(<16A/	16c#/	.	24ee\LL	.	.	.	.	8ee\	qui	.	.	.	8ee\J
.	.	.	.	.	.	24ff#\	.	.	.	.	.	.	.	.	.	.
.	.	.	16c#/JJ)	16e/JJ	.	.	.	.	.	.	.	.	.	.	.	.
.	.	.	.	.	.	24ee\JJ	.	.	.	.	.	.	.	.	.	.
!	!	!	!	!	!	!	!	!	!	!	!LO:SIC:custos ee:v	!	!	!	!	!
8G#X\	X 6	.	(<16G#X/LL	16B/LL	.	24e/LL	.	.	.	.	[>4ee\	ve-	.	.	.	4ee\
.	.	.	.	.	.	24g#X/	.	.	.	.	.	.	.	.	.	.
.	.	.	16B/)	16e/	.	.	.	.	.	.	.	.	.	.	.	.
.	.	.	.	.	.	24b/JJ	.	.	.	.	.	.	.	.	.	.
8r	.	.	(<16G#/	16B/	.	24dd\LL	.	.	.	.	.	.	.	.	.	.
.	.	.	.	.	.	24ee\	.	.	.	.	.	.	.	.	.	.
.	.	.	16B/JJ)	16e/JJ	.	.	.	.	.	.	.	.	.	.	.	.
.	.	.	.	.	.	24dd\JJ	.	.	.	.	.	.	.	.	.	.
!	!	!	!	!	!	!	!	!	!	!	!LO:LB:g=original	!	!	!	!	!
=31	=31	=31	=31	=31	=31	=31	=31	=31	=31	=31	=31	=31	=31	=31	=31	=31
!LO:TX:a:t=P:problem:mixed beam	!	!	!	!	!	!	!	!	!	!	!	!	!	!	!	!
8A\L	.	2ryy	4A/	4e/	.	4cc#\	.	2ryy	2ryy	2ryy	8ee\]	.	2ryy	2ryy	2ryy	4ee\
8C#/	X 6	.	.	.	.	.	.	.	.	.	16a\	-nit	.	.	.	.
.	.	.	.	.	.	.	.	.	.	.	16a\	qui	.	.	.	.
8AA/	.	.	4r	4r	.	4r	.	.	.	.	8aa\	ve-	.	.	.	4r
8C#/J	.	.	.	.	.	.	.	.	.	.	16ee\	-nit	.	.	.	.
.	.	.	.	.	.	.	.	.	.	.	16ee\	in	.	.	.	.
=32	=32	=32	=32	=32	=32	=32	=32	=32	=32	=32	=32	=32	=32	=32	=32	=32
!	!	!	!	!	!	!	!	!	!	!	!	!	!	!	!	!LO:N:vis=0
4D\	.	2ryy	2r	2r	.	2r	.	2ryy	2ryy	2ryy	8ff#\	no-	2ryy	2ryy	2ryy	1r
.	.	.	.	.	.	.	.	.	.	.	16ee\	-mi-	.	.	.	.
.	.	.	.	.	.	.	.	.	.	.	16dd\	-ne	.	.	.	.
.	.	.	.	.	.	.	.	.	.	.	8qcc#/	.	.	.	.	.
!LO:TX:a:t=P:problem:mixed beam	!	!	!	!	!	!	!	!	!	!	!	!	!	!	!	!
8E\L	X 4	.	.	.	.	.	.	.	.	.	8.b\	Do-	.	.	.	.
8EE/J	X #	.	.	.	.	.	.	.	.	.	.	.	.	.	.	.
.	.	.	.	.	.	.	.	.	.	.	16b\	-mi-	.	.	.	.
=33	=33	=33	=33	=33	=33	=33	=33	=33	=33	=33	=33	=33	=33	=33	=33	=33
!LO:TX:a:t=P:problem:mixed beam	!	!	!	!	!LO:DY:b:t=for	!	!LO:DY:b:t=for	!	!	!	!	!	!	!	!	!
8AA/L	.	2ryy	8c#\L	8aa\	f	8.aa\L	f	2ryy	2ryy	2ryy	4a\	-ni	2ryy	2ryy	2ryy	.
8c#\	.	.	8e\J	8r	.	.	.	.	.	.	.	.	.	.	.	.
.	.	.	.	.	.	16aa\Jk	.	.	.	.	.	.	.	.	.	.
8G#X\	X 6	.	8B/L	8ee\	.	24bb\LL	.	.	.	.	4r	.	.	.	.	.
.	.	.	.	.	.	24aa#X\	.	.	.	.	.	.	.	.	.	.
.	.	.	.	.	.	24bb\JJ	.	.	.	.	.	.	.	.	.	.
8E\J	.	.	8G#X/J	8r	.	24bb\LL	.	.	.	.	.	.	.	.	.	.
.	.	.	.	.	.	24aa#\	.	.	.	.	.	.	.	.	.	.
.	.	.	.	.	.	24bb\JJ	.	.	.	.	.	.	.	.	.	.
!LO:LB:g=original	!	!	!	!	!	!	!	!	!	!	!	!	!	!	!	!
=34	=34	=34	=34	=34	=34	=34	=34	=34	=34	=34	=34	=34	=34	=34	=34	=34
!LO:TX:a:t=P:problem:mixed beam	!	!	!	!	!	!	!	!	!	!	!LO:N:vis=00	!	!	!	!	!LO:N:vis=1
8A\L	.	2ryy	8e\L	8ee\L	.	24ccc#\LL	.	2ryy	2ryy	2ryy	0r	.	2ryy	2ryy	2ryy	2r
.	.	.	.	.	.	24bb\	.	.	.	.	.	.	.	.	.	.
.	.	.	.	.	.	24ccc#\JJ	.	.	.	.	.	.	.	.	.	.
!	!	!	!	!LO:TUP:a:problem:klamra łukowa, kropka zamiast numeru	!	!	!	!	!	!	!	!	!	!	!	!
8D\	6 5	.	8f#\	24ff#\L	.	24ddd\LL	.	.	.	.	.	.	.	.	.	.
.	.	.	.	24ee\	.	24ccc#\	.	.	.	.	.	.	.	.	.	.
.	.	.	.	24dd\JJ	.	24bb\JJ	.	.	.	.	.	.	.	.	.	.
8E\	.	.	8e\	8cc#\L	.	8aa\L	.	.	.	.	.	.	.	.	.	.
8EE/J	X #4r	.	8e\J	8bT>\J	.	8gg#X\J	.	.	.	.	.	.	.	.	.	.
!	!	!	!	!	!	!LO:LB:g=original	!	!	!	!	!	!	!	!	!	!
=35	=35	=35	=35	=35	=35	=35	=35	=35	=35	=35	=35	=35	=35	=35	=35	=35
8AA/	.	2ryy	(<16A/LL	8a/L	.	4aa\	.	2ryy	2ryy	2ryy	.	.	2ryy	2ryy	2ryy	8r
.	.	.	16c#/)	.	.	.	.	.	.	.	.	.	.	.	.	.
8r	.	.	(<16A/	(<16c#/L	.	.	.	.	.	.	.	.	.	.	.	8ee\
.	.	.	16c#/JJ)	16e/JJ)	.	.	.	.	.	.	.	.	.	.	.	.
!	!	!	!	!	!	!	!	!	!	!	!	!	!	!	!	!LO:TUP:a:problem:klamra łukowa, kropka zamiast numeru
8G#X\	X 6	.	(<16G#X/LL	(<16B/LL	.	8r	.	.	.	.	.	.	.	.	.	24ee\LL
.	.	.	.	.	.	.	.	.	.	.	.	.	.	.	.	24dd\
.	.	.	16B/)	16e/)	.	.	.	.	.	.	.	.	.	.	.	.
.	.	.	.	.	.	.	.	.	.	.	.	.	.	.	.	24cc#\JJ
!	!	!	!	!	!	!	!	!	!	!	!	!	!	!	!	!LO:TUP:a:problem:klamra łukowa, kropka zamiast numeru
8r	.	.	(<16G#/	(<16B/	.	8b\	.	.	.	.	.	.	.	.	.	24b\LL
.	.	.	.	.	.	.	.	.	.	.	.	.	.	.	.	24cc#\
.	.	.	16B/JJ)	16e/JJ)	.	.	.	.	.	.	.	.	.	.	.	.
.	.	.	.	.	.	.	.	.	.	.	.	.	.	.	.	24dd\JJ
!	!	!	!LO:LB:g=original	!	!	!	!	!	!	!	!	!	!	!	!	!
=36	=36	=36	=36	=36	=36	=36	=36	=36	=36	=36	=36	=36	=36	=36	=36	=36
8A\	.	2ryy	(<16A/LL	(<16c#/LL	.	24a\LL	.	2ryy	2ryy	2ryy	.	.	2ryy	2ryy	2ryy	8cc#\L
.	.	.	.	.	.	24cc#\	.	.	.	.	.	.	.	.	.	.
.	.	.	16c#/)	16e/)	.	.	.	.	.	.	.	.	.	.	.	.
.	.	.	.	.	.	24dd\JJ	.	.	.	.	.	.	.	.	.	.
8r	.	.	(<16A/	(<16c#/	.	24ee\LL	.	.	.	.	.	.	.	.	.	8ee\J
.	.	.	.	.	.	24ff#\	.	.	.	.	.	.	.	.	.	.
.	.	.	16c#/JJ)	16e/JJ)	.	.	.	.	.	.	.	.	.	.	.	.
.	.	.	.	.	.	24ee\JJ	.	.	.	.	.	.	.	.	.	.
8G#X\	X 6	.	(<16G#X/LL	(<16B/LL	.	24e/LL	.	.	.	.	.	.	.	.	.	4ee\
.	.	.	.	.	.	24g#X/	.	.	.	.	.	.	.	.	.	.
.	.	.	16B/)	16e/)	.	.	.	.	.	.	.	.	.	.	.	.
.	.	.	.	.	.	24b/JJ	.	.	.	.	.	.	.	.	.	.
8r	.	.	(<16G#/	(<16B/	.	24dd\LL	.	.	.	.	.	.	.	.	.	.
.	.	.	.	.	.	24ee\	.	.	.	.	.	.	.	.	.	.
.	.	.	16B/JJ)	16e/JJ)	.	.	.	.	.	.	.	.	.	.	.	.
.	.	.	.	.	.	24dd\JJ	.	.	.	.	.	.	.	.	.	.
=37	=37	=37	=37	=37	=37	=37	=37	=37	=37	=37	=37	=37	=37	=37	=37	=37
!LO:TX:a:t=P:problem:mixed beam	!	!	!LO:TX:a:t=P:problem:mixed beam	!	!	!	!	!	!	!	!	!	!	!	!	!
8A\L	.	2ryy	8A/L	8c#/	.	24cc#\LL	.	2ryy	2ryy	2ryy	.	.	2ryy	2ryy	2ryy	8ee\L
.	.	.	.	.	.	24ee\	.	.	.	.	.	.	.	.	.	.
.	.	.	.	.	.	24aa\JJ	.	.	.	.	.	.	.	.	.	.
!	!	!	!	!	!	!	!	!	!	!	!	!	!	!	!	!LO:TUP:a:problem:klamra łukowa, kropka zamiast numeru
8D\	.	.	8f#\	4a/	.	24ff#\LL	.	.	.	.	.	.	.	.	.	24ff#\L
.	.	.	.	.	.	24ee\	.	.	.	.	.	.	.	.	.	24ee\
.	.	.	.	.	.	24dd\JJ	.	.	.	.	.	.	.	.	.	24dd\JJ
8E\	.	.	8e\	.	.	8cc#\L	.	.	.	.	.	.	.	.	.	8cc#\L
8EE/J	X #4r	.	8e\J	8g#X/	.	8b\J	.	.	.	.	.	.	.	.	.	8b\J
=38	=38	=38	=38	=38	=38	=38	=38	=38	=38	=38	=38	=38	=38	=38	=38	=38
8A\L	.	2ryy	4e\	4a/	.	4a/	.	2ryy	2ryy	2ryy	4a\	Be-	2ryy	2ryy	2ryy	4a/
8c#\	.	.	.	.	.	.	.	.	.	.	.	.	.	.	.	.
8G#X\	X 6	.	4r	4r	.	4r	.	.	.	.	4b\	-ne-	.	.	.	4r
8E\J	.	.	.	.	.	.	.	.	.	.	.	.	.	.	.	.
=39	=39	=39	=39	=39	=39	=39	=39	=39	=39	=39	=39	=39	=39	=39	=39	=39
8A\L	.	2ryy	2r	2r	.	2r	.	2ryy	2ryy	2ryy	8cc#\	-di-	2ryy	2ryy	2ryy	2r
8F#\	.	.	.	.	.	.	.	.	.	.	16b\	-ctus	.	.	.	.
.	.	.	.	.	.	.	.	.	.	.	16a\	qui	.	.	.	.
8D\	6 5	.	.	.	.	.	.	.	.	.	8b\L	ve-	.	.	.	.
8E\J	X #	.	.	.	.	.	.	.	.	.	16a\L	.	.	.	.	.
.	.	.	.	.	.	.	.	.	.	.	16g#X\JJ	.	.	.	.	.
=40	=40	=40	=40	=40	=40	=40	=40	=40	=40	=40	=40	=40	=40	=40	=40	=40
!	!	!	!	!	!	!	!LO:DY:b:t=for:rj	!	!	!	!	!	!	!	!	!
8AA/	.	2ryy	8c#\	8a/	.	24a\LL	f	2ryy	2ryy	2ryy	4a\	-nit	2ryy	2ryy	2ryy	8ee\L
.	.	.	.	.	.	24cc#\	.	.	.	.	.	.	.	.	.	.
.	.	.	.	.	.	24dd\JJ	.	.	.	.	.	.	.	.	.	.
8r	.	.	8r	8r	.	24ee\LL	.	.	.	.	.	.	.	.	.	8cc#\J
.	.	.	.	.	.	24dd\	.	.	.	.	.	.	.	.	.	.
.	.	.	.	.	.	24ee\JJ	.	.	.	.	.	.	.	.	.	.
*	*	*	*	*	*	*	*	*	*	*	*	*	*	*	*	*tuplet
!	!	!	!	!	!	!	!	!	!	!	!	!	!	!	!	!LO:TUP:a
8A\	.	.	8c#\	8a/	.	24cc#\LL	.	.	.	.	4r	.	.	.	.	24a\LL
.	.	.	.	.	.	24ee\	.	.	.	.	.	.	.	.	.	24cc#\
.	.	.	.	.	.	24ff#\JJ	.	.	.	.	.	.	.	.	.	24dd\JJ
!	!	!	!	!	!	!	!	!	!	!	!	!	!	!	!	!LO:TUP:a
8r	.	.	8r	8r	.	24gg\LL	.	.	.	.	.	.	.	.	.	24ee\LL
.	.	.	.	.	.	24ff#\	.	.	.	.	.	.	.	.	.	24dd\
.	.	.	.	.	.	24gg\JJ	.	.	.	.	.	.	.	.	.	24ee\JJ
=41	=41	=41	=41	=41	=41	=41	=41	=41	=41	=41	=41	=41	=41	=41	=41	=41
8D\L	.	2ryy	4A/	4a/	.	4ff#\	.	2ryy	2ryy	2ryy	4dd\	Be-	2ryy	2ryy	2ryy	4dd\
8F#\J	X 6	.	.	.	.	.	.	.	.	.	.	.	.	.	.	.
8C#/L	X 6	.	4r	4r	.	4r	.	.	.	.	4ee\	-ne-	.	.	.	4r
8AA/J	.	.	.	.	.	.	.	.	.	.	.	.	.	.	.	.
!	!	!	!	!	!	!	!	!	!	!	!LO:LB:g=original	!	!	!	!	!
=42	=42	=42	=42	=42	=42	=42	=42	=42	=42	=42	=42	=42	=42	=42	=42	=42
!	!	!	!LO:N:vis=0	!LO:N:vis=0	!	!	!	!	!	!	!	!	!	!	!	!LO:N:vis=0
8D\L	.	2ryy	1r	1r	.	2r	.	2ryy	2ryy	2ryy	8ff#\	-di-	2ryy	2ryy	2ryy	1r
8B\	.	.	.	.	.	.	.	.	.	.	16ee\	-ctus	.	.	.	.
.	.	.	.	.	.	.	.	.	.	.	16dd\	qui	.	.	.	.
8G\	6 5	.	.	.	.	.	.	.	.	.	8ee\L	ve-	.	.	.	.
8A\J	.	.	.	.	.	.	.	.	.	.	16dd\L	.	.	.	.	.
.	.	.	.	.	.	.	.	.	.	.	16cc#\JJ	.	.	.	.	.
=43	=43	=43	=43	=43	=43	=43	=43	=43	=43	=43	=43	=43	=43	=43	=43	=43
4D/	.	2ryy	.	.	.	4r	.	2ryy	2ryy	2ryy	8dd\	-nit	2ryy	2ryy	2ryy	.
.	.	.	.	.	.	.	.	.	.	.	4ff#\	Be-	.	.	.	.
8D/L	.	.	.	.	.	8r	.	.	.	.	.	.	.	.	.	.
8C#/J	.	.	.	.	.	[>8aa\	.	.	.	.	8ee\	-ne-	.	.	.	.
!	!	!	!	!LO:LB:g=original	!	!	!	!	!	!	!	!	!	!	!	!
=44	=44	=44	=44	=44	=44	=44	=44	=44	=44	=44	=44	=44	=44	=44	=44	=44
!	!	!	!LO:SIC:s'=16d#	!	!	!	!	!	!	!	!	!	!	!	!	!LO:N:vis=1
8BB/	.	2ryy	(>16d\LL	(<16f#/LL	.	24aa\LL]	.	2ryy	2ryy	2ryy	8dd#X\	-di-	2ryy	2ryy	2ryy	2r
.	.	.	.	.	.	24cccn\	.	.	.	.	.	.	.	.	.	.
.	.	.	16f#\)	16a/)	.	.	.	.	.	.	.	.	.	.	.	.
.	.	.	.	.	.	24bb\JJ	.	.	.	.	.	.	.	.	.	.
!	!	!	!LO:SIC:s'=16d#	!	!	!	!	!	!	!	!	!	!	!	!	!
8r	.	.	(>16d\	(<16f#/	.	24aa\LL	.	.	.	.	16ff#\	-ctus	.	.	.	.
.	.	.	.	.	.	24bb\	.	.	.	.	.	.	.	.	.	.
.	.	.	16f#\JJ)	16a/JJ)	.	.	.	.	.	.	16ff#\	qui	.	.	.	.
.	.	.	.	.	.	24gg\JJ	.	.	.	.	.	.	.	.	.	.
!	!	!	!LO:SIC:s'=16d#	!	!	!LO:PB:g=original	!	!	!	!	!	!	!	!	!	!
8C#/	.	.	(>16d\LL	(<16f#/LL	.	24ff#\LL	.	.	.	.	8.ff#\L	ve-	.	.	.	.
.	.	.	.	.	.	24gg\	.	.	.	.	.	.	.	.	.	.
.	.	.	16f#\)	16a/)	.	.	.	.	.	.	.	.	.	.	.	.
.	.	.	.	.	.	24ee\JJ	.	.	.	.	.	.	.	.	.	.
!	!	!	!LO:SIC:s'=16d#	!	!	!	!	!	!	!	!	!	!	!	!	!
8r	.	.	(>16d\	(<16f#/	.	24dd#X\LL	.	.	.	.	.	.	.	.	.	.
.	.	.	.	.	.	24ee\	.	.	.	.	.	.	.	.	.	.
.	.	.	16f#\JJ)	16a/JJ)	.	.	.	.	.	.	32ee\LL	.	.	.	.	.
.	.	.	.	.	.	24dd#\JJ	.	.	.	.	.	.	.	.	.	.
.	.	.	.	.	.	.	.	.	.	.	32ff#\JJJ	.	.	.	.	.
=45	=45	=45	=45	=45	=45	=45	=45	=45	=45	=45	=45	=45	=45	=45	=45	=45
!LO:TX:a:t=P:problem:nieczytelne oznaczenie bc	!	!	!	!	!	!LO:TX:a:t=P:problem:mixed beam	!	!	!	!	!	!	!	!	!	!
8E\	X n	2ryy	(>16e\LL	(<16g/LL	.	8ee\L	.	2ryy	2ryy	2ryy	8gg\	-nit	2ryy	2ryy	2ryy	16r
.	.	.	16g\)	16b/)	.	.	.	.	.	.	.	.	.	.	.	16b\LL
8r	.	.	(>16e\	(<16g/	.	8e/J	.	.	.	.	4ee\	be-	.	.	.	16ee\
.	.	.	16g\JJ)	16b/JJ)	.	.	.	.	.	.	.	.	.	.	.	16ff#\JJ
8E\	.	.	(>16e\LL	(<16g/LL	.	4r	.	.	.	.	.	.	.	.	.	[>4gg\
.	.	.	16g\)	16b/)	.	.	.	.	.	.	.	.	.	.	.	.
8r	.	.	(>16e\	(<16g/	.	.	.	.	.	.	8dd\	-ne-	.	.	.	.
.	.	.	16g\JJ)	16b/JJ)	.	.	.	.	.	.	.	.	.	.	.	.
!LO:LB:g=original	!	!	!	!	!	!	!	!	!	!	!	!	!	!	!	!LO:LB:g=original
=46	=46	=46	=46	=46	=46	=46	=46	=46	=46	=46	=46	=46	=46	=46	=46	=46
!	!	!	!	!	!	!	!LO:DY:b:t=po.	!	!	!	!	!	!	!	!	!LO:TUP:a
8AA/	X 7	2ryy	(>16c#\LL	(<16e/LL	.	8cc#\	p	2ryy	2ryy	2ryy	8cc#\	-di-	2ryy	2ryy	2ryy	24gg\LL]
.	.	.	.	.	.	.	.	.	.	.	.	.	.	.	.	24bb\
.	.	.	16e\)	16g/)	.	.	.	.	.	.	.	.	.	.	.	.
.	.	.	.	.	.	.	.	.	.	.	.	.	.	.	.	24aa\JJ
!	!	!	!	!	!	!	!	!	!	!	!	!	!	!	!	!LO:TUP:a
8r	.	.	(>16c#\	(<16e/	.	8r	.	.	.	.	16ee\	-ctus	.	.	.	24gg\LL
.	.	.	.	.	.	.	.	.	.	.	.	.	.	.	.	24aa\
.	.	.	16e\JJ)	16g/JJ)	.	.	.	.	.	.	16ee\	qui	.	.	.	.
.	.	.	.	.	.	.	.	.	.	.	.	.	.	.	.	24ff#\JJ
!	!	!	!	!	!	!	!	!	!	!	!	!	!	!	!	!LO:TUP:a
8AA/	.	.	(>16c#\LL	(<16e/LL	.	8ee\	.	.	.	.	8.ee\L	ve-	.	.	.	24ee\LL
.	.	.	.	.	.	.	.	.	.	.	.	.	.	.	.	24ff#\
.	.	.	16e\)	16g/)	.	.	.	.	.	.	.	.	.	.	.	.
.	.	.	.	.	.	.	.	.	.	.	.	.	.	.	.	24dd\JJ
!	!	!	!	!	!	!	!	!	!	!	!	!	!	!	!	!LO:TUP:a
8r	.	.	(>16c#\	(<16e/	.	8r	.	.	.	.	.	.	.	.	.	24cc#\LL
.	.	.	.	.	.	.	.	.	.	.	.	.	.	.	.	24dd\
.	.	.	16e\JJ)	16g/JJ)	.	.	.	.	.	.	32dd\LL	.	.	.	.	.
.	.	.	.	.	.	.	.	.	.	.	.	.	.	.	.	24cc#\JJ
.	.	.	.	.	.	.	.	.	.	.	32ee\JJJ	.	.	.	.	.
=47	=47	=47	=47	=47	=47	=47	=47	=47	=47	=47	=47	=47	=47	=47	=47	=47
4D\	.	2ryy	4d\	4f#/	.	4a/	.	2ryy	2ryy	2ryy	8ff#\	-nit	2ryy	2ryy	2ryy	4dd\
.	.	.	.	.	.	.	.	.	.	.	16ff#\	Be-	.	.	.	.
.	.	.	.	.	.	.	.	.	.	.	16ee\	-ne-	.	.	.	.
!	!	!	!	!	!	!	!	!	!	!	!LO:LB:g=original	!	!	!	!	!
8F#\L	X 6	.	4r	4r	.	4r	.	.	.	.	8dd\	-di-	.	.	.	4r
8D\J	.	.	.	.	.	.	.	.	.	.	16a\	-ctus	.	.	.	.
.	.	.	.	.	.	.	.	.	.	.	16a\	qui	.	.	.	.
=48	=48	=48	=48	=48	=48	=48	=48	=48	=48	=48	=48	=48	=48	=48	=48	=48
!	!	!	!LO:N:vis=0	!LO:N:vis=0	!	!LO:N:vis=0	!	!	!	!	!	!	!	!	!	!LO:N:vis=0
4G\	.	2ryy	1r	1r	.	1r	.	2ryy	2ryy	2ryy	8b\	ve-	2ryy	2ryy	2ryy	1r
.	.	.	.	.	.	.	.	.	.	.	16gg\	-nit	.	.	.	.
.	.	.	.	.	.	.	.	.	.	.	16ff#\	in	.	.	.	.
4G\	6 5	.	.	.	.	.	.	.	.	.	8ee\	no-	.	.	.	.
.	.	.	.	.	.	.	.	.	.	.	16ff#\	-mi-	.	.	.	.
.	.	.	.	.	.	.	.	.	.	.	16dd\	-ne	.	.	.	.
=49	=49	=49	=49	=49	=49	=49	=49	=49	=49	=49	=49	=49	=49	=49	=49	=49
8A\L	.	2ryy	.	.	.	.	.	2ryy	2ryy	2ryy	16cc#\	Do-	2ryy	2ryy	2ryy	.
.	.	.	.	.	.	.	.	.	.	.	16b\	-mi-	.	.	.	.
8E\J	.	.	.	.	.	.	.	.	.	.	8a\	-ni	.	.	.	.
4AA/	.	.	.	.	.	.	.	.	.	.	8r	.	.	.	.	.
.	.	.	.	.	.	.	.	.	.	.	8a\	qui	.	.	.	.
=50	=50	=50	=50	=50	=50	=50	=50	=50	=50	=50	=50	=50	=50	=50	=50	=50
!	!	!	!	!	!	!	!LO:DY:b:t=p&colon;	!	!	!	!	!	!	!	!	!
8D/	.	2ryy	(>16d\LL	(<16f#/LL	.	8a/	p	2ryy	2ryy	2ryy	4a\	ve-	2ryy	2ryy	2ryy	8r
.	.	.	16f#\)	16a/)	.	.	.	.	.	.	.	.	.	.	.	.
8r	.	.	(>16d\	(<16f#/	.	8r	.	.	.	.	.	.	.	.	.	8aa\
.	.	.	16f#\JJ)	16a/JJ)	.	.	.	.	.	.	.	.	.	.	.	.
!	!	!	!	!	!	!	!	!	!	!	!	!	!	!	!	!LO:TUP:a
8C#/	X 6	.	(>16c#\LL	(<16e/LL	.	8ee\	.	.	.	.	8a\	-nit	.	.	.	24aa\LL
.	.	.	.	.	.	.	.	.	.	.	.	.	.	.	.	24gg\
.	.	.	16e\)	16a/	.	.	.	.	.	.	.	.	.	.	.	.
.	.	.	.	.	.	.	.	.	.	.	.	.	.	.	.	24ff#\JJ
!	!	!	!	!	!	!	!	!	!	!	!	!	!	!	!	!LO:TUP:a
8r	.	.	(>16c#\	16e/	.	8r	.	.	.	.	8a\	qui	.	.	.	24ee\LL
.	.	.	.	.	.	.	.	.	.	.	.	.	.	.	.	24ff#\
.	.	.	16e\JJ)	16a/JJ)	.	.	.	.	.	.	.	.	.	.	.	.
.	.	.	.	.	.	.	.	.	.	.	.	.	.	.	.	24gg\JJ
=51	=51	=51	=51	=51	=51	=51	=51	=51	=51	=51	=51	=51	=51	=51	=51	=51
*	*	*	*	*	*	*	*	*	*	*	*2\right	*	*	*	*	*
8D/	.	2ryy	(>16d\LL	(<16f#/LL	.	24dd\LL	.	2ryy	2ryy	2ryy	2a\	ve-	2ryy	2ryy	2ryy	8ff#\L
.	.	.	.	.	.	24ff#\	.	.	.	.	.	.	.	.	.	.
.	.	.	16f#\)	16a/	.	.	.	.	.	.	.	.	.	.	.	.
.	.	.	.	.	.	24gg\JJ	.	.	.	.	.	.	.	.	.	.
8r	.	.	(>16d\	16f#/	.	24aa\LL	.	.	.	.	.	.	.	.	.	8aa\J
.	.	.	.	.	.	24bb\	.	.	.	.	.	.	.	.	.	.
.	.	.	16f#\JJ)	16a/JJ)	.	.	.	.	.	.	.	.	.	.	.	.
.	.	.	.	.	.	24aa\JJ	.	.	.	.	.	.	.	.	.	.
8C#/	X 6	.	(>16c#\LL	(<16e/LL	.	24a\LL	.	.	.	.	.	.	.	.	.	4aa\
.	.	.	.	.	.	24cc#\	.	.	.	.	.	.	.	.	.	.
.	.	.	16e\)	16a/	.	.	.	.	.	.	.	.	.	.	.	.
.	.	.	.	.	.	24ee\JJ	.	.	.	.	.	.	.	.	.	.
8r	.	.	(>16c#\	16e/	.	24gg\LL	.	.	.	.	.	.	.	.	.	.
.	.	.	.	.	.	24aa\	.	.	.	.	.	.	.	.	.	.
.	.	.	16e\JJ)	16a/JJ)	.	.	.	.	.	.	.	.	.	.	.	.
.	.	.	.	.	.	24gg\JJ	.	.	.	.	.	.	.	.	.	.
!	!	!	!LO:LB:g=original	!	!	!	!	!	!	!	!	!	!	!	!	!
=52	=52	=52	=52	=52	=52	=52	=52	=52	=52	=52	=52	=52	=52	=52	=52	=52
8D\L	.	2ryy	4d\	4a/	.	4ff#\	.	2ryy	2ryy	2ryy	8a\	.	2ryy	2ryy	2ryy	4aa\
8D\	.	.	.	.	.	.	.	.	.	.	16d/	-nit	.	.	.	.
.	.	.	.	.	.	.	.	.	.	.	16ff#\	qui	.	.	.	.
!	!	!	!	!	!	!	!	!	!	!	!	!	!	!	!	!LO:TX:a:t=P:problem:zbędna pauza półnutowa w źródle
!	!	!	!	!	!	!	!	!	!	!	!	!	!	!	!	!LO:N:vis=4
8F#\	X 6	.	4r	4r	.	4r	.	.	.	.	16aa\LL	ve-	.	.	.	8r
.	.	.	.	.	.	.	.	.	.	.	16ff#\JJ	.	.	.	.	.
!	!	!	!	!	!	!	!	!	!	!	!	!	!	!	!	!LO:N:vis=2
8F#\J	.	.	.	.	.	.	.	.	.	.	16dd\	-nit	.	.	.	8r
.	.	.	.	.	.	.	.	.	.	.	16a\	in	.	.	.	.
!	!	!	!	!	!	!	!	!	!	!	!LO:LB:g=original	!	!	!	!	!
=53	=53	=53	=53	=53	=53	=53	=53	=53	=53	=53	=53	=53	=53	=53	=53	=53
4G\	6 5	2ryy	2r	2r	.	2r	.	2ryy	2ryy	2ryy	16b\LL	no-	2ryy	2ryy	2ryy	2r
.	.	.	.	.	.	.	.	.	.	.	16gg\JJ	.	.	.	.	.
.	.	.	.	.	.	.	.	.	.	.	16ff#\	-mi-	.	.	.	.
.	.	.	.	.	.	.	.	.	.	.	32ee\LLL	-ne	.	.	.	.
.	.	.	.	.	.	.	.	.	.	.	32dd\JJJ	.	.	.	.	.
.	.	.	.	.	.	.	.	.	.	.	8qff#/	.	.	.	.	.
!LO:TX:a:t=P:problem:mixed beam	!	!	!	!	!	!	!	!	!	!	!	!	!	!	!	!
8A\L	X 4	.	.	.	.	.	.	.	.	.	8.ee\	Do-	.	.	.	.
8AA/J	X 3	.	.	.	.	.	.	.	.	.	.	.	.	.	.	.
.	.	.	.	.	.	.	.	.	.	.	16ee\	-mi-	.	.	.	.
!	!	!	!	!LO:TX:a:i:t=DaCapo.	!	!	!	!	!	!	!	!	!	!	!	!LO:TX:a:t=P:problem:Da Capo za ostatnią kreską taktową na pięciolinii
!	!	!	!	!LO:TX:a:t=P:problem:DaCapo na pięciolinii za ostatnią kreską taktową	!	!	!	!	!	!	!	!	!	!	!	!LO:TX:a:i:t=Da Capo al Seg&colon;
=54	=54	=54	=54	=54	=54	=54	=54	=54	=54	=54	=54	=54	=54	=54	=54	=54
!LO:TX:a:t=P:problem:mixed beam	!	!	!	!LO:TX:a:i:t=Andantino	!	!	!LO:DY:b:t=for	!	!	!	!	!	!	!	!	!LO:TX:a:i:t=And&colon;te Solo
!	!	!	!	!	!	!	!	!	!	!	!	!	!	!	!	!LO:N:vis=0
8D\L	.	2ryy	8f#\L	8dd\yy	.	8.dd\L	f	2ryy	2ryy	2ryy	4dd\	-ni	2ryy	2ryy	2ryy	1ryy
8F#\	.	.	8a\	8ryy	.	.	.	.	.	.	.	.	.	.	.	.
.	.	.	.	.	.	16dd\Jk	.	.	.	.	.	.	.	.	.	.
8C#/	X 6	.	8e\	8a/yy	.	24ee\LL	.	.	.	.	4r	.	.	.	.	.
.	.	.	.	.	.	24dd#X\	.	.	.	.	.	.	.	.	.	.
.	.	.	.	.	.	24ee\JJ	.	.	.	.	.	.	.	.	.	.
8AA/J	.	.	8c#\J	8ryy	.	24ee\LL	.	.	.	.	.	.	.	.	.	.
.	.	.	.	.	.	24dd#\	.	.	.	.	.	.	.	.	.	.
.	.	.	.	.	.	24ee\JJ	.	.	.	.	.	.	.	.	.	.
=55	=55	=55	=55	=55	=55	=55	=55	=55	=55	=55	=55	=55	=55	=55	=55	=55
!LO:TX:a:t=P:problem:mixed beam	!	!	!	!	!	!LO:TUP:a:problem:kropka zamiast numeru	!	!	!	!	!LO:N:vis=00	!	!	!	!	!
8D\L	.	2ryy	8A/L	8a/Lyy	.	24ff#\LL	.	2ryy	2ryy	2ryy	0r	.	2ryy	2ryy	2ryy	.
.	.	.	.	.	.	24ee\	.	.	.	.	.	.	.	.	.	.
.	.	.	.	.	.	24ff#\JJ	.	.	.	.	.	.	.	.	.	.
!	!	!	!	!LO:TUP:b:problem:klamra łukowa, kropka zamiast numeru	!	!LO:TUP:a:problem:kropka zamiast numeru	!	!	!	!	!	!	!	!	!	!
8G\	6 5	.	8B/	24b/Lyy	.	24gg\LL	.	.	.	.	.	.	.	.	.	.
.	.	.	.	24a/yy	.	24ff#\	.	.	.	.	.	.	.	.	.	.
.	.	.	.	24g/JJyy	.	24ee\JJ	.	.	.	.	.	.	.	.	.	.
!	!	!	!	!	!	!LO:LB:g=original	!	!	!	!	!	!	!	!	!	!
8A\	X 4	.	8A/	8f#/Lyy	.	8dd\L	.	.	.	.	.	.	.	.	.	.
8AA/J	X 3	.	8A/J	8e/Jyy	.	8cc#\J	.	.	.	.	.	.	.	.	.	.
=56	=56	=56	=56	=56	=56	=56	=56	=56	=56	=56	=56	=56	=56	=56	=56	=56
!	!	!	!	!	!LO:DY:b:t=po.	!	!	!	!	!	!	!	!	!	!	!
4D\	.	2ryy	4A/	8f#/Lyy	p	8dd\	.	2ryy	2ryy	2ryy	.	.	2ryy	2ryy	2ryy	8.dd\Lyy
.	.	.	.	8d/yy	.	8r	.	.	.	.	.	.	.	.	.	.
.	.	.	.	.	.	.	.	.	.	.	.	.	.	.	.	32ee\LLyy
.	.	.	.	.	.	.	.	.	.	.	.	.	.	.	.	32ff#\JJJyy
!	!	!	!	!	!	!	!LO:DY:b:t=p&colon;	!	!	!	!	!	!	!	!	!
4r	.	.	4r	8c#/yy	.	8a/	p	.	.	.	.	.	.	.	.	8.ee\Lyy
.	.	.	.	8A/Jyy	.	8r	.	.	.	.	.	.	.	.	.	.
.	.	.	.	.	.	.	.	.	.	.	.	.	.	.	.	32ff#\LLyy
.	.	.	.	.	.	.	.	.	.	.	.	.	.	.	.	32gg\JJJyy
=57	=57	=57	=57	=57	=57	=57	=57	=57	=57	=57	=57	=57	=57	=57	=57	=57
*	*	*	*	*	*	*	*	*	*	*	*	*	*	*	*	*Xtuplet
!	!	!	!	!	!	!	!	!	!	!	!	!	!	!	!	!LO:TUP:a:problem:klamra łukowa
2r	.	2ryy	2r	8d/Lyy	.	8a/	.	2ryy	2ryy	2ryy	.	.	2ryy	2ryy	2ryy	24ff#\LLyy
.	.	.	.	.	.	.	.	.	.	.	.	.	.	.	.	24ee\yy
.	.	.	.	.	.	.	.	.	.	.	.	.	.	.	.	24ff#\JJyy
!	!	!	!	!	!	!	!	!	!	!	!	!	!	!	!	!LO:TUP:a:problem:klamra łukowa, kropka zamiast numeru
.	.	.	.	8B/yy	.	4d/	.	.	.	.	.	.	.	.	.	24gg\LLyy
.	.	.	.	.	.	.	.	.	.	.	.	.	.	.	.	24ff#\yy
.	.	.	.	.	.	.	.	.	.	.	.	.	.	.	.	24ee\JJyy
.	.	.	.	8G/yy	.	.	.	.	.	.	.	.	.	.	.	4eeT>\yy
.	.	.	.	8A/Jyy	.	8c#/	.	.	.	.	.	.	.	.	.	.
=58	=58	=58	=58	=58	=58	=58	=58	=58	=58	=58	=58	=58	=58	=58	=58	=58
!	!	!	!	!	!	!LO:TX:a:t=P:problem:mixed beam	!	!	!	!	!	!	!	!	!	!
8D/	.	2ryy	(>16d\LL	8d/Lyy	.	8d/L	.	2ryy	2ryy	2ryy	.	.	2ryy	2ryy	2ryy	4dd\yy
.	.	.	16f#\)	.	.	.	.	.	.	.	.	.	.	.	.	.
!	!	!	!	!	!	!	!LO:DY:b:t=fo	!	!	!	!	!	!	!	!	!
8r	.	.	(>16d\	(<16f#/Lyy	.	[>8aa\J	f	.	.	.	.	.	.	.	.	.
.	.	.	16f#\JJ)	16a/JJ)yy	.	.	.	.	.	.	.	.	.	.	.	.
8D/	.	.	(>16d\LL	(<16f#/LLyy	.	24aa\LL]	.	.	.	.	.	.	.	.	.	4ryy
.	.	.	.	.	.	24ff#\	.	.	.	.	.	.	.	.	.	.
.	.	.	16f#\)	16a/)yy	.	.	.	.	.	.	.	.	.	.	.	.
.	.	.	.	.	.	24dd\JJ	.	.	.	.	.	.	.	.	.	.
8r	.	.	(>16d\	(<16f#/yy	.	24a\LL	.	.	.	.	.	.	.	.	.	.
.	.	.	.	.	.	24dd\	.	.	.	.	.	.	.	.	.	.
.	.	.	16f#\JJ)	16a/JJ)yy	.	.	.	.	.	.	.	.	.	.	.	.
.	.	.	.	.	.	24ff#\JJ	.	.	.	.	.	.	.	.	.	.
=59	=59	=59	=59	=59	=59	=59	=59	=59	=59	=59	=59	=59	=59	=59	=59	=59
!	!	!	!	!	!	!	!	!	!	!	!LO:N:vis=00	!	!	!	!	!
8A\	.	2ryy	(>16c#\LL	(<16e/LLyy	.	8ff#\L	.	2ryy	2ryy	2ryy	0r	.	2ryy	2ryy	2ryy	8ryy
.	.	.	16e\)	16a/)yy	.	.	.	.	.	.	.	.	.	.	.	.
8r	.	.	(>16c#\	(<16e/yy	.	8ee\J	.	.	.	.	.	.	.	.	.	8aa\yy
.	.	.	16e\JJ)	16a/JJ)yy	.	.	.	.	.	.	.	.	.	.	.	.
!	!	!	!	!	!	!	!	!	!	!	!	!	!	!	!	!LO:TUP:a:problem:klamra łukowa, kropka zamiast numeru
8A\	.	.	(>16c#\LL	(<16e/LLyy	.	4r	.	.	.	.	.	.	.	.	.	24aa\LLyy
.	.	.	.	.	.	.	.	.	.	.	.	.	.	.	.	24ee\yy
.	.	.	16e\)	16a/)yy	.	.	.	.	.	.	.	.	.	.	.	.
.	.	.	.	.	.	.	.	.	.	.	.	.	.	.	.	24cc#\JJyy
!	!	!	!	!	!	!	!	!	!	!	!	!	!	!	!	!LO:TUP:a:problem:klamra łukowa, kropka zamiast numeru
8r	.	.	(>16c#\	(<16e/yy	.	.	.	.	.	.	.	.	.	.	.	24a\LLyy
.	.	.	.	.	.	.	.	.	.	.	.	.	.	.	.	24cc#\yy
.	.	.	16e\JJ)	16a/JJ)yy	.	.	.	.	.	.	.	.	.	.	.	.
.	.	.	.	.	.	.	.	.	.	.	.	.	.	.	.	24ee\JJyy
!LO:LB:g=original	!	!	!	!	!	!	!	!	!	!	!	!	!	!	!	!
=60	=60	=60	=60	=60	=60	=60	=60	=60	=60	=60	=60	=60	=60	=60	=60	=60
8B\	.	2ryy	(<16B/LL	(<16d/LLyy	.	8r	.	2ryy	2ryy	2ryy	.	.	2ryy	2ryy	2ryy	8ee\Lyy
.	.	.	16d/)	16g#X/)yy	.	.	.	.	.	.	.	.	.	.	.	.
8r	.	.	(<16B/	(<16d/yy	.	[>8bb\	.	.	.	.	.	.	.	.	.	8dd\Jyy
.	.	.	16d/JJ)	16g#/JJ)yy	.	.	.	.	.	.	.	.	.	.	.	.
!	!	!	!	!	!	!LO:TX:a:t=P:problem:mixed beam	!	!	!	!	!	!	!	!	!	!
8E\	7 #	.	(<16B/LL	(<16d/LLyy	.	24bb\LL]	.	.	.	.	.	.	.	.	.	4ryy
.	.	.	.	.	.	24dd\	.	.	.	.	.	.	.	.	.	.
.	.	.	16d/)	16g#/)yy	.	.	.	.	.	.	.	.	.	.	.	.
.	.	.	.	.	.	24e/JJ	.	.	.	.	.	.	.	.	.	.
8r	.	.	(<16B/	(<16d/yy	.	24e/LL	.	.	.	.	.	.	.	.	.	.
.	.	.	.	.	.	24b/	.	.	.	.	.	.	.	.	.	.
.	.	.	16d/JJ)	16g#/JJ)yy	.	.	.	.	.	.	.	.	.	.	.	.
.	.	.	.	.	.	24dd/JJ	.	.	.	.	.	.	.	.	.	.
=61	=61	=61	=61	=61	=61	=61	=61	=61	=61	=61	=61	=61	=61	=61	=61	=61
8A\	.	2ryy	(<16A/LL	(<16c#/LLyy	.	8dd\L	.	2ryy	2ryy	2ryy	.	.	2ryy	2ryy	2ryy	8ryy
.	.	.	16c#/)	16e/)yy	.	.	.	.	.	.	.	.	.	.	.	.
8r	.	.	(<16A/	(<16c#/yy	.	8cc#\J	.	.	.	.	.	.	.	.	.	8dd\yy
.	.	.	16c#/JJ)	16e/JJ)yy	.	.	.	.	.	.	.	.	.	.	.	.
!	!	!	!	!	!	!	!	!	!	!	!	!	!	!	!	!LO:TUP:a:problem:klamra łukowa, kropka zamiast numeru
8G#X\	X 6	.	(<16G#X/LL	(<16B/LLyy	.	8r	.	.	.	.	.	.	.	.	.	24ee\LLyy
.	.	.	.	.	.	.	.	.	.	.	.	.	.	.	.	24dd\yy
.	.	.	16B/)	16e/)yy	.	.	.	.	.	.	.	.	.	.	.	.
.	.	.	.	.	.	.	.	.	.	.	.	.	.	.	.	24cc#\JJyy
!	!	!	!	!	!	!	!	!	!	!	!	!	!	!	!	!LO:TUP:a:problem:klamra łukowa, kropka zamiast numeru
8r	.	.	(<16G#/	(<16B/yy	.	8b\	.	.	.	.	.	.	.	.	.	24b\LLyy
.	.	.	.	.	.	.	.	.	.	.	.	.	.	.	.	24cc#\yy
.	.	.	16B/JJ)	16e/JJ)yy	.	.	.	.	.	.	.	.	.	.	.	.
.	.	.	.	.	.	.	.	.	.	.	.	.	.	.	.	24dd\JJyy
=62	=62	=62	=62	=62	=62	=62	=62	=62	=62	=62	=62	=62	=62	=62	=62	=62
8A\	.	2ryy	(<16A/LL	(<16c#/LLyy	.	24a\LL	.	2ryy	2ryy	2ryy	.	.	2ryy	2ryy	2ryy	8cc#\Lyy
.	.	.	.	.	.	24cc#\	.	.	.	.	.	.	.	.	.	.
.	.	.	16c#/)	16e/)yy	.	.	.	.	.	.	.	.	.	.	.	.
.	.	.	.	.	.	24dd\JJ	.	.	.	.	.	.	.	.	.	.
8r	.	.	(<16A/	(<16c#/yy	.	24ee\LL	.	.	.	.	.	.	.	.	.	8ee\Jyy
.	.	.	.	.	.	24ff#\	.	.	.	.	.	.	.	.	.	.
.	.	.	16c#/JJ)	16e/JJ)yy	.	.	.	.	.	.	.	.	.	.	.	.
.	.	.	.	.	.	24ee\JJ	.	.	.	.	.	.	.	.	.	.
8G#X\	X 6	.	(<16G#X/LL	(<16B/LLyy	.	24e/LL	.	.	.	.	.	.	.	.	.	[>4ee\yy
.	.	.	.	.	.	24g#X/	.	.	.	.	.	.	.	.	.	.
.	.	.	16B/)	16e/)yy	.	.	.	.	.	.	.	.	.	.	.	.
.	.	.	.	.	.	24b/JJ	.	.	.	.	.	.	.	.	.	.
8r	.	.	(<16G#/	(<16B/yy	.	24dd\LL	.	.	.	.	.	.	.	.	.	.
.	.	.	.	.	.	24ee\	.	.	.	.	.	.	.	.	.	.
.	.	.	16B/JJ)	16e/JJ)yy	.	.	.	.	.	.	.	.	.	.	.	.
.	.	.	.	.	.	24dd\JJ	.	.	.	.	.	.	.	.	.	.
=63	=63	=63	=63	=63	=63	=63	=63	=63	=63	=63	=63	=63	=63	=63	=63	=63
!LO:TX:a:t=P:problem:mixed beam	!	!	!LO:TX:a:t=P:problem:mixed beam	!	!	!	!	!	!	!	!LO:N:vis=00	!	!	!	!	!
8A\L	.	2ryy	8A/L	8c#/yy	.	24cc#\LL	.	2ryy	2ryy	2ryy	0r	.	2ryy	2ryy	2ryy	8ee\L]yy
.	.	.	.	.	.	24ee\	.	.	.	.	.	.	.	.	.	.
.	.	.	.	.	.	24aa\JJ	.	.	.	.	.	.	.	.	.	.
!	!	!	!	!	!	!	!	!	!	!	!	!	!	!	!	!LO:TUP:a:problem:klamra łukowa, kropka zamiast numeru
8D\	6 5	.	8f#\	4a/yy	.	24ff#\LL	.	.	.	.	.	.	.	.	.	24ff#\Lyy
.	.	.	.	.	.	24ee\	.	.	.	.	.	.	.	.	.	24ee\yy
.	.	.	.	.	.	24dd\JJ	.	.	.	.	.	.	.	.	.	24dd\JJyy
8E\	.	.	8e\	.	.	8cc#\L	.	.	.	.	.	.	.	.	.	8cc#\Lyy
8EE/J	X #4r	.	8e\J	8g#X/yy	.	8bT>\J	.	.	.	.	.	.	.	.	.	8b\Jyy
!	!	!	!	!	!	!LO:LB:g=original	!	!	!	!	!	!	!	!	!	!
=64	=64	=64	=64	=64	=64	=64	=64	=64	=64	=64	=64	=64	=64	=64	=64	=64
!LO:TX:a:t=P:problem:mixed beam	!	!	!	!	!	!	!	!	!	!	!	!	!	!	!	!
8AA/L	.	2ryy	4e\	4a/yy	.	4a/	.	2ryy	2ryy	2ryy	.	.	2ryy	2ryy	2ryy	4a/yy
16A\L	.	.	.	.	.	.	.	.	.	.	.	.	.	.	.	.
16Gn\JJ	.	.	.	.	.	.	.	.	.	.	.	.	.	.	.	.
!	!	!	!LO:TX:t=P:problem:znak segno nad kreską taktową	!	!	!	!	!	!	!	!	!	!	!	!	!
8F#\L	.	.	4r	4ryy	.	8r	.	.	.	.	.	.	.	.	.	4ryy
8E\J	.	.	.	.	.	[>8aa\	.	.	.	.	.	.	.	.	.	.
!	!	!	!LO:TX:a:t=[segno]	!	!	!	!	!	!	!	!	!	!	!	!	!
!	!	!	!LO:TX:a:i:t=da Capo.	!	!	!	!	!	!	!	!	!	!	!	!	!
!	!	!	!LO:TX:a:t=P:problem:"da Capo" na pięciolinii za ostatnią kreską taktową	!	!	!	!	!	!	!	!	!	!	!	!	!
=65	=65	=65	=65	=65	=65	=65	=65	=65	=65	=65	=65	=65	=65	=65	=65	=65
8D#X/	6 5	2ryy	(>16B\LLyy	(<16f#/LLyy	.	24aa\LL]	.	2ryy	2ryy	2ryy	.	.	2ryy	2ryy	2ryy	4ryy
.	.	.	.	.	.	24cccn\	.	.	.	.	.	.	.	.	.	.
.	.	.	16f#\)yy	16a/)yy	.	.	.	.	.	.	.	.	.	.	.	.
.	.	.	.	.	.	24bb\JJ	.	.	.	.	.	.	.	.	.	.
8r	.	.	(>16d#X\yy	(<16f#/yy	.	24aa\LL	.	.	.	.	.	.	.	.	.	.
.	.	.	.	.	.	24bb\	.	.	.	.	.	.	.	.	.	.
.	.	.	16f#\JJ)yy	16a/JJ)yy	.	.	.	.	.	.	.	.	.	.	.	.
.	.	.	.	.	.	24aa\JJ	.	.	.	.	.	.	.	.	.	.
8BB/	7 #	.	(>16d#\LLyy	(<16f#/LLyy	.	24ff#\LL	.	.	.	.	.	.	.	.	.	8ryy
.	.	.	.	.	.	24gg\	.	.	.	.	.	.	.	.	.	.
.	.	.	16f#\)yy	16a/)yy	.	.	.	.	.	.	.	.	.	.	.	.
.	.	.	.	.	.	24ee\JJ	.	.	.	.	.	.	.	.	.	.
8r	.	.	(>16d#\yy	(<16f#/yy	.	24dd#X\LL	.	.	.	.	.	.	.	.	.	8ff#\yy
.	.	.	.	.	.	24ee\	.	.	.	.	.	.	.	.	.	.
.	.	.	16f#\JJ)yy	16a/JJ)yy	.	.	.	.	.	.	.	.	.	.	.	.
.	.	.	.	.	.	24dd#\JJ	.	.	.	.	.	.	.	.	.	.
=66	=66	=66	=66	=66	=66	=66	=66	=66	=66	=66	=66	=66	=66	=66	=66	=66
!LO:TX:a:t=P:problem:nieczytelne oznaczenie bc	!	!	!	!	!	!LO:TX:a:t=P:problem:mixed beam	!	!	!	!	!	!	!	!	!	!
8E\	X n	2ryy	(>16e\LLyy	(<16g/LLyy	.	8ee\L	.	2ryy	2ryy	2ryy	.	.	2ryy	2ryy	2ryy	16gg\LLyy
.	.	.	16g\)yy	16b/)yy	.	.	.	.	.	.	.	.	.	.	.	16b\yy
8r	.	.	(>16e\yy	(<16g/yy	.	8e/J	.	.	.	.	.	.	.	.	.	16ee\yy
.	.	.	16g\JJ)yy	16b/JJ)yy	.	.	.	.	.	.	.	.	.	.	.	16ff#\JJyy
8EE/	.	.	(>16e\LLyy	(<16g/LLyy	.	4r	.	.	.	.	.	.	.	.	.	4gg\yy
.	.	.	16g\)yy	16b/)yy	.	.	.	.	.	.	.	.	.	.	.	.
8r	.	.	(>16e\yy	(<16g/yy	.	.	.	.	.	.	.	.	.	.	.	.
.	.	.	16g\JJ)yy	16b/JJ)yy	.	.	.	.	.	.	.	.	.	.	.	.
=67	=67	=67	=67	=67	=67	=67	=67	=67	=67	=67	=67	=67	=67	=67	=67	=67
*	*	*	*	*	*	*	*	*	*	*	*	*	*	*	*	*tuplet
!	!	!	!	!	!	!	!	!	!	!	!LO:N:vis=00	!	!	!	!	!LO:TUP:a
8AA/	.	2ryy	(>16c#\LLyy	(<16e/LLyy	.	8cc#\	.	2ryy	2ryy	2ryy	0r	.	2ryy	2ryy	2ryy	24gg\LLyy
.	.	.	.	.	.	.	.	.	.	.	.	.	.	.	.	24bb\yy
.	.	.	16e\)yy	16g/)yy	.	.	.	.	.	.	.	.	.	.	.	.
.	.	.	.	.	.	.	.	.	.	.	.	.	.	.	.	24aa\JJyy
!	!	!	!	!	!	!	!	!	!	!	!	!	!	!	!	!LO:TUP:a
8r	.	.	(>16c#\yy	(<16e/yy	.	8r	.	.	.	.	.	.	.	.	.	24gg\LLyy
.	.	.	.	.	.	.	.	.	.	.	.	.	.	.	.	24aa\yy
.	.	.	16e\JJ)yy	16g/JJ)yy	.	.	.	.	.	.	.	.	.	.	.	.
.	.	.	.	.	.	.	.	.	.	.	.	.	.	.	.	24ff#\JJyy
!	!	!	!	!	!	!	!	!	!	!	!	!	!	!	!	!LO:TUP:a
8A\	.	.	(>16c#\LLyy	(<16e/LLyy	.	8ee\	.	.	.	.	.	.	.	.	.	24ee\LLyy
.	.	.	.	.	.	.	.	.	.	.	.	.	.	.	.	24ff#\yy
.	.	.	16e\)yy	16g/)yy	.	.	.	.	.	.	.	.	.	.	.	.
.	.	.	.	.	.	.	.	.	.	.	.	.	.	.	.	24dd\JJyy
!	!	!	!	!	!	!	!	!	!	!	!	!	!	!	!	!LO:TUP:a
8r	.	.	(>16c#\yy	(<16e/yy	.	8r	.	.	.	.	.	.	.	.	.	24cc#\LLyy
.	.	.	.	.	.	.	.	.	.	.	.	.	.	.	.	24dd\yy
.	.	.	16e\JJ)yy	16g/JJ)yy	.	.	.	.	.	.	.	.	.	.	.	.
.	.	.	.	.	.	.	.	.	.	.	.	.	.	.	.	24b\JJyy
=68	=68	=68	=68	=68	=68	=68	=68	=68	=68	=68	=68	=68	=68	=68	=68	=68
8D\	.	2ryy	(>16d\LLyy	(<16f#/LLyy	.	8ff#\L|	.	2ryy	2ryy	2ryy	.	.	2ryy	2ryy	2ryy	8dd\Lyy|
.	.	.	16f#\)yy	16a/)yy	.	.	.	.	.	.	.	.	.	.	.	.
!	!	!	!	!	!	!LO:TUP:a:problem:klamra łukowa	!	!	!	!	!	!	!	!	!	!LO:TUP:a
8r	.	.	(>16d\yy	(<16f#/yy	.	24aa\L	.	.	.	.	.	.	.	.	.	24ff#\Lyy
.	.	.	.	.	.	24bb\	.	.	.	.	.	.	.	.	.	24gg\yy
.	.	.	16f#\JJ)yy	16a/JJ)yy	.	.	.	.	.	.	.	.	.	.	.	.
.	.	.	.	.	.	24aa\JJ	.	.	.	.	.	.	.	.	.	24ff#\JJyy
!	!	!	!	!	!	!	!	!	!	!	!	!	!	!	!	!LO:TUP:a
8GG/	6 5	.	(<16B/LLyy	(<16d/LLyy	.	24gg\LL	.	.	.	.	.	.	.	.	.	24ee\LLyy
.	.	.	.	.	.	24aa\	.	.	.	.	.	.	.	.	.	24ff#\yy
.	.	.	16d/)yy	16g/)yy	.	.	.	.	.	.	.	.	.	.	.	.
.	.	.	.	.	.	24gg\JJ	.	.	.	.	.	.	.	.	.	24ee\JJyy
!	!	!	!	!	!	!	!	!	!	!	!	!	!	!	!	!LO:TUP:a
8r	.	.	(<16B/yy	(<16d/yy	.	24ff#\LL	.	.	.	.	.	.	.	.	.	24dd\LLyy
.	.	.	.	.	.	24gg\	.	.	.	.	.	.	.	.	.	24ee\yy
.	.	.	16d/JJ)yy	16g/JJ)yy	.	.	.	.	.	.	.	.	.	.	.	.
.	.	.	.	.	.	24ff#\JJ	.	.	.	.	.	.	.	.	.	24dd\JJyy
=69	=69	=69	=69	=69	=69	=69	=69	=69	=69	=69	=69	=69	=69	=69	=69	=69
*	*	*	*	*	*	*	*	*	*	*	*	*	*	*	*	*Xtuplet
!	!	!	!	!	!	!LO:TX:a:t=P:problem:mixed beam	!	!	!	!	!	!	!	!	!	!
8AA/	.	2ryy	(>16c#\LLyy	(<16e/LLyy	.	8ee\L	.	2ryy	2ryy	2ryy	.	.	2ryy	2ryy	2ryy	8cc#\Lyy
.	.	.	16e\)yy	16a/)yy	.	.	.	.	.	.	.	.	.	.	.	.
8r	.	.	(>16c#\yy	(<16e/yy	.	8a/J	.	.	.	.	.	.	.	.	.	8aa\Jyy
.	.	.	16e\JJ)yy	16a/JJ)yy	.	.	.	.	.	.	.	.	.	.	.	.
!	!	!	!	!	!	!	!	!	!	!	!	!	!	!	!	!LO:TUP:a:problem:klamra łukowa, kropka zamiast numeru
8C#/	X 6	.	(>16c#\LLyy	(<16e/LLyy	.	8r	.	.	.	.	.	.	.	.	.	24aa\LLyy
.	.	.	.	.	.	.	.	.	.	.	.	.	.	.	.	24gg\yy
.	.	.	16e\)yy	16a/)yy	.	.	.	.	.	.	.	.	.	.	.	.
.	.	.	.	.	.	.	.	.	.	.	.	.	.	.	.	24ff#\JJyy
!	!	!	!	!	!	!	!	!	!	!	!	!	!	!	!	!LO:TUP:a:problem:klamra łukowa, kropka zamiast numeru
8r	.	.	(>16c#\yy	(<16e/yy	.	8ee\	.	.	.	.	.	.	.	.	.	24ee\LLyy
.	.	.	.	.	.	.	.	.	.	.	.	.	.	.	.	24ff#\yy
.	.	.	16e\JJ)yy	16a/JJ)yy	.	.	.	.	.	.	.	.	.	.	.	.
.	.	.	.	.	.	.	.	.	.	.	.	.	.	.	.	24gg\JJyy
=70	=70	=70	=70	=70	=70	=70	=70	=70	=70	=70	=70	=70	=70	=70	=70	=70
8D/	.	2ryy	(>16d\LLyy	(<16f#/LLyy	.	24dd\LL	.	2ryy	2ryy	2ryy	.	.	2ryy	2ryy	2ryy	8ff#\Lyy
.	.	.	.	.	.	24ff#\	.	.	.	.	.	.	.	.	.	.
.	.	.	16f#\)yy	16a/)yy	.	.	.	.	.	.	.	.	.	.	.	.
.	.	.	.	.	.	24gg\JJ	.	.	.	.	.	.	.	.	.	.
8r	.	.	(>16d\yy	(<16f#/yy	.	24aa\LL	.	.	.	.	.	.	.	.	.	8aa\Jyy
.	.	.	.	.	.	24bb\	.	.	.	.	.	.	.	.	.	.
.	.	.	16f#\JJ)yy	16a/JJ)yy	.	.	.	.	.	.	.	.	.	.	.	.
.	.	.	.	.	.	24aa\JJ	.	.	.	.	.	.	.	.	.	.
8C#/	X 6	.	(>16c#\LLyy	(<16e/LLyy	.	24a/LL	.	.	.	.	.	.	.	.	.	[>4aa\yy
.	.	.	.	.	.	24cc#/	.	.	.	.	.	.	.	.	.	.
.	.	.	16e\)yy	16a/)yy	.	.	.	.	.	.	.	.	.	.	.	.
.	.	.	.	.	.	24ee/JJ	.	.	.	.	.	.	.	.	.	.
8r	.	.	(>16c#\yy	(<16e/yy	.	24gg\LL	.	.	.	.	.	.	.	.	.	.
.	.	.	.	.	.	24aa\	.	.	.	.	.	.	.	.	.	.
.	.	.	16e\JJ)yy	16a/JJ)yy	.	.	.	.	.	.	.	.	.	.	.	.
.	.	.	.	.	.	24gg\JJ	.	.	.	.	.	.	.	.	.	.
=71	=71	=71	=71	=71	=71	=71	=71	=71	=71	=71	=71	=71	=71	=71	=71	=71
*	*	*	*	*	*	*	*	*	*	*	*	*	*	*	*	*tuplet
!LO:TX:a:t=P:problem:mixed beam	!	!	!	!	!	!	!	!	!	!	!LO:N:vis=0	!	!	!	!	!
8D\L	.	2ryy	8d/Lyy	8f#/yy	.	24ff#\LL	.	2ryy	2ryy	2ryy	1r	.	2ryy	2ryy	2ryy	8aa\L]yy
.	.	.	.	.	.	24aa\	.	.	.	.	.	.	.	.	.	.
.	.	.	.	.	.	24ddd\JJ	.	.	.	.	.	.	.	.	.	.
8G\	6 5	.	8B/yy	4dd\yy	.	24bb\LL	.	.	.	.	.	.	.	.	.	24bb\Lyy
.	.	.	.	.	.	24aa\	.	.	.	.	.	.	.	.	.	24aa\yy
.	.	.	.	.	.	24gg\JJ	.	.	.	.	.	.	.	.	.	24gg\JJyy
8A\	X 4	.	8A/yy	.	.	8ff#\L	.	.	.	.	.	.	.	.	.	8ff#\Lyy
8AA/J	X 3	.	8A/Jyy	8cc#\yy	.	8ee\J	.	.	.	.	.	.	.	.	.	8eeT>\Jyy
=72	=72	=72	=72	=72	=72	=72	=72	=72	=72	=72	=72	=72	=72	=72	=72	=72
4D\	.	2ryy	4A/yy	4dd\yy	.	4dd\	.	2ryy	2ryy	2ryy	.	.	2ryy	2ryy	2ryy	4dd\yy
!	!	!	!LO:TX:t=P:problem:fermata pod i nad pauzą	!LO:TX:t=P:problem:fermata nad i pod pauzą (dolna bez kropki)	!	!	!	!	!	!	!	!	!	!	!	!LO:TX:t=P:problem:fermata nad i pod pauzą
4r;>	.	.	4r;>;<yy	4r;>;<yy	.	4r	.	.	.	.	.	.	.	.	.	4r;>;<yy
==	==	==	==	==	==	==	==	==	==	==	==	==	==	==	==	==
*-	*-	*-	*-	*-	*-	*-	*-	*-	*-	*-	*-	*-	*-	*-	*-	*-
!!!system-decoration: [g1][g2][g3][g4]s13
!!!RDF**kern: > = above
!!!RDF**kern: < = below
!!!EED: Mateusz Mrugas
!!!EST: 2021-01-14
!!!ENC: Katarzyna Serwa
!!!END: 2021-01-09
!!!RDF**kern: | = vertical stroke
